<?xml version="1.0" encoding="UTF-8"?>
<map version="1.10" tiledversion="1.12.2" orientation="orthogonal" renderorder="right-down" width="27" height="24" tilewidth="32" tileheight="32" infinite="0" nextlayerid="21" nextobjectid="1">
 <tileset firstgid="1" name="CuteRPG_Field_B" tilewidth="32" tileheight="32" tilecount="256" columns="16">
  <image source="CuteRPG_Field_B.png" trans="ff00ff" width="512" height="512"/>
 </tileset>
 <tileset firstgid="257" name="CuteRPG_Field_C" tilewidth="32" tileheight="32" tilecount="256" columns="16">
  <image source="CuteRPG_Field_C.png" trans="ff00ff" width="512" height="512"/>
 </tileset>
 <tileset firstgid="513" name="CuteRPG_Harbor_C" tilewidth="32" tileheight="32" tilecount="256" columns="16">
  <image source="CuteRPG_Harbor_C.png" trans="ff00ff" width="512" height="512"/>
 </tileset>
 <tileset firstgid="769" name="Room_Builder_32x32" tilewidth="32" tileheight="32" tilecount="8284" columns="76">
  <image source="Room_Builder_32x32.png" trans="ff00ff" width="2432" height="3488"/>
 </tileset>
 <tileset firstgid="9053" name="CuteRPG_Village_B" tilewidth="32" tileheight="32" tilecount="256" columns="16">
  <image source="CuteRPG_Village_B.png" trans="ff00ff" width="512" height="512"/>
 </tileset>
 <tileset firstgid="9309" name="CuteRPG_Forest_B" tilewidth="32" tileheight="32" tilecount="256" columns="16">
  <image source="CuteRPG_Forest_B.png" trans="ff00ff" width="512" height="512"/>
 </tileset>
 <tileset firstgid="9565" name="CuteRPG_Desert_C" tilewidth="32" tileheight="32" tilecount="256" columns="16">
  <image source="CuteRPG_Desert_C.png" trans="ff00ff" width="512" height="512"/>
 </tileset>
 <tileset firstgid="9821" name="CuteRPG_Mountains_B" tilewidth="32" tileheight="32" tilecount="256" columns="16">
  <image source="CuteRPG_Mountains_B.png" trans="ff00ff" width="512" height="512"/>
 </tileset>
 <tileset firstgid="10077" name="CuteRPG_Desert_B" tilewidth="32" tileheight="32" tilecount="256" columns="16">
  <image source="CuteRPG_Desert_B.png" trans="ff00ff" width="512" height="512"/>
 </tileset>
 <tileset firstgid="10333" name="CuteRPG_Forest_C" tilewidth="32" tileheight="32" tilecount="256" columns="16">
  <image source="CuteRPG_Forest_C.png" trans="ff00ff" width="512" height="512"/>
 </tileset>
 <tileset firstgid="10589" name="interiors_pt1" tilewidth="32" tileheight="32" tilecount="5008" columns="16">
  <image source="interiors_pt1.png" trans="ff00ff" width="512" height="10016"/>
 </tileset>
 <tileset firstgid="15597" name="interiors_pt2" tilewidth="32" tileheight="32" tilecount="5008" columns="16">
  <image source="interiors_pt2.png" trans="ff00ff" width="512" height="10016"/>
 </tileset>
 <tileset firstgid="20605" name="interiors_pt3" tilewidth="32" tileheight="32" tilecount="5008" columns="16">
  <image source="interiors_pt3.png" trans="ff00ff" width="512" height="10032"/>
 </tileset>
 <tileset firstgid="25613" name="interiors_pt4" tilewidth="32" tileheight="32" tilecount="2000" columns="16">
  <image source="interiors_pt4.png" trans="ff00ff" width="512" height="4000"/>
 </tileset>
 <tileset firstgid="27613" name="interiors_pt5" tilewidth="32" tileheight="32" tilecount="4512" columns="16">
  <image source="interiors_pt5.png" trans="ff00ff" width="512" height="9024"/>
 </tileset>
 <tileset firstgid="32125" name="blocks" tilewidth="32" tileheight="32" tilecount="80" columns="10">
  <image source="blocks_1.png" trans="ff00ff" width="320" height="256"/>
 </tileset>
 <tileset firstgid="32205" name="blocks_2" tilewidth="32" tileheight="32" tilecount="80" columns="10">
  <image source="blocks_2.png" trans="ff00ff" width="320" height="256"/>
 </tileset>
 <tileset firstgid="32285" name="blocks_3" tilewidth="32" tileheight="32" tilecount="40" columns="10">
  <image source="blocks_3.png" trans="ff00ff" width="320" height="128"/>
 </tileset>
 <tileset firstgid="32325" source="../../../../../../../素材_trading_32/trading_32.tsx"/>
 <tileset firstgid="32325" source="../../../../../../../素材_trading_32/trading_grid.tsx"/>
 <layer id="1" name="Bottom Ground" width="27" height="24">
  <data encoding="csv">
32126,32126,32126,32126,32126,32126,32126,32126,32126,32126,32126,32126,32126,32126,32126,32126,32126,32126,32126,32126,32126,32126,32126,32126,32126,32126,32126,
32126,32126,32126,32126,32126,32126,32126,32126,32126,32126,32126,32126,32126,32126,32126,32126,32126,32126,32126,32126,32126,32126,32126,32126,32126,32126,32126,
32126,32126,32126,32126,32126,32126,32126,32126,32126,32126,32126,32126,32126,32126,32126,32126,32126,32126,32126,32126,32126,32126,32126,32126,32126,32126,32126,
32126,32126,32126,32126,32126,32126,32126,32126,32126,32126,32126,32126,32126,32126,32126,32126,32126,32126,32126,32126,32126,32126,32126,32126,32126,32126,32126,
32126,32126,32126,32126,32126,32126,32126,32126,32126,32126,32126,32126,32126,32126,32126,32126,32126,32126,32126,32126,32126,32126,32126,32126,32126,32126,32126,
32126,32126,32126,32126,32126,32126,32126,32126,32126,32126,32126,32126,32126,32126,32126,32126,32126,32126,32126,32126,32126,32126,32126,32126,32126,32126,32126,
32126,32126,32126,32126,32126,32126,32126,32126,32126,32126,32126,32126,32126,32126,32126,32126,32126,32126,32126,32126,32126,32126,32126,32126,32126,32126,32126,
32126,32126,32126,32126,32126,32126,32126,32126,32126,32126,32126,32126,32126,32126,32126,32126,32126,32126,32126,32126,32126,32126,32126,32126,32126,32126,32126,
32126,32126,32126,32126,32126,32126,32126,32126,32126,32126,32126,32126,32126,32126,32126,32126,32126,32126,32126,32126,32126,32126,32126,32126,32126,32126,32126,
32126,32126,32126,32126,32126,32126,32126,32126,32126,32126,32126,32126,32126,32126,32126,32126,32126,32126,32126,32126,32126,32126,32126,32126,32126,32126,32126,
32126,32126,32126,32126,32126,32126,32126,32126,32126,32126,32126,32126,32126,32126,32126,32126,32126,32126,32126,32126,32126,32126,32126,32126,32126,32126,32126,
32126,32126,32126,32126,32126,32126,32126,32126,32126,32126,32126,32126,32126,32126,32126,32126,32126,32126,32126,32126,32126,32126,32126,32126,32126,32126,32126,
32126,32126,32126,32126,32126,32126,32126,32126,32126,32126,32126,32126,32126,32126,32126,32126,32126,32126,32126,32126,32126,32126,32126,32126,32126,32126,32126,
32126,32126,32126,32126,32126,32126,32126,32126,32126,32126,32126,32126,32126,32126,32126,32126,32126,32126,32126,32126,32126,32126,32126,32126,32126,32126,32126,
32126,32126,32126,32126,32126,32126,32126,32126,32126,32126,32126,32126,32126,32126,32126,32126,32126,32126,32126,32126,32126,32126,32126,32126,32126,32126,32126,
32126,32126,32126,32126,32126,32126,32126,32126,32126,32126,32126,32126,32126,32126,32126,32126,32126,32126,32126,32126,32126,32126,32126,32126,32126,32126,32126,
32126,32126,32126,32126,32126,32126,32126,32126,32126,32126,32126,32126,32126,32126,32126,32126,32126,32126,32126,32126,32126,32126,32126,32126,32126,32126,32126,
32126,32126,32126,32126,32126,32126,32126,32126,32126,32126,32126,32126,32126,32126,32126,32126,32126,32126,32126,32126,32126,32126,32126,32126,32126,32126,32126,
32126,32126,32126,32126,32126,32126,32126,32126,32126,32126,32126,32126,32126,32126,32126,32126,32126,32126,32126,32126,32126,32126,32126,32126,32126,32126,32126,
32126,32126,32126,32126,32126,32126,32126,32126,32126,32126,32126,32126,32126,32126,32126,32126,32126,32126,32126,32126,32126,32126,32126,32126,32126,32126,32126,
32126,32126,32126,32126,32126,32126,32126,32126,32126,32126,32126,32126,32126,32126,32126,32126,32126,32126,32126,32126,32126,32126,32126,32126,32126,32126,32126,
32126,32126,32126,32126,32126,32126,32126,32126,32126,32126,32126,32126,32126,32126,32126,32126,32126,32126,32126,32126,32126,32126,32126,32126,32126,32126,32126,
32126,32126,32126,32126,32126,32126,32126,32126,32126,32126,32126,32126,32126,32126,32126,32126,32126,32126,32126,32126,32126,32126,32126,32126,32126,32126,32126,
32126,32126,32126,32126,32126,32126,32126,32126,32126,32126,32126,32126,32126,32126,32126,32126,32126,32126,32126,32126,32126,32126,32126,32126,32126,32126,32126
</data>
 </layer>
 <layer id="4" name="Exterior Ground" width="27" height="24">
  <data encoding="csv">
0,0,0,0,0,0,0,0,0,0,0,0,0,0,0,0,0,0,0,0,0,0,0,0,0,0,0,
0,0,0,0,0,0,0,0,0,0,0,0,0,0,0,0,0,0,0,0,0,0,0,0,0,0,0,
0,0,0,0,0,0,0,0,0,0,0,0,0,0,0,0,0,0,0,0,0,0,0,0,0,0,0,
0,0,0,0,0,0,0,0,0,0,0,0,0,0,0,0,0,0,0,0,0,0,0,0,0,0,0,
0,0,0,0,0,0,0,0,0,0,0,0,0,0,0,0,0,0,0,0,0,0,0,0,0,0,0,
0,0,0,0,0,0,0,0,0,0,0,0,0,0,0,0,0,0,0,0,0,0,0,0,0,0,0,
0,0,0,0,0,0,0,0,0,0,0,0,0,0,0,0,0,0,0,0,0,0,0,0,0,0,0,
0,0,0,0,0,0,0,0,0,0,0,0,0,0,0,0,0,0,0,0,0,0,0,0,0,0,0,
0,0,0,0,0,0,0,0,0,0,0,0,0,0,0,0,0,0,0,0,0,0,0,0,0,0,0,
0,0,0,0,0,0,0,0,0,0,0,0,0,0,0,0,0,0,0,0,0,0,0,0,0,0,0,
0,0,0,0,0,0,0,0,0,0,0,0,0,0,0,0,0,0,0,0,0,0,0,0,0,0,0,
0,0,0,0,0,0,0,0,0,0,0,0,0,0,0,0,0,0,0,0,0,0,0,0,0,0,0,
0,0,0,0,0,0,0,0,0,0,0,0,0,0,0,0,0,0,0,0,0,0,0,0,0,0,0,
0,0,0,0,0,0,0,0,0,0,0,0,0,0,0,0,0,0,0,0,0,0,0,0,0,0,0,
0,0,0,0,0,0,0,0,0,0,0,0,0,0,0,0,0,0,0,0,0,0,0,0,0,0,0,
0,0,0,0,0,0,0,0,0,0,0,0,0,0,0,0,0,0,0,0,0,0,0,0,0,0,0,
0,0,0,0,0,0,0,0,0,0,0,0,0,0,0,0,0,0,0,0,0,0,0,0,0,0,0,
0,0,0,0,0,0,0,0,0,0,0,0,0,0,0,0,0,0,0,0,0,0,0,0,0,0,0,
0,0,0,0,0,0,0,0,0,0,0,0,0,0,0,0,0,0,0,0,0,0,0,0,0,0,0,
0,0,0,0,0,0,0,0,0,0,0,0,0,0,0,0,0,0,0,0,0,0,0,0,0,0,0,
0,0,0,0,0,0,0,0,0,0,0,0,0,0,0,0,0,0,0,0,0,0,0,0,0,0,0,
0,0,0,0,0,0,0,0,0,0,0,0,0,0,0,0,0,0,0,0,0,0,0,0,0,0,0,
0,0,0,0,0,0,0,0,0,0,0,0,0,0,0,0,0,0,0,0,0,0,0,0,0,0,0,
0,0,0,0,0,0,0,0,0,0,0,0,0,0,0,0,0,0,0,0,0,0,0,0,0,0,0
</data>
 </layer>
 <layer id="6" name="Exterior Decoration L1" width="27" height="24">
  <data encoding="csv">
0,0,0,0,0,0,0,0,0,0,0,0,0,0,0,0,0,0,0,0,0,0,0,0,0,0,0,
0,0,0,0,0,0,0,0,0,0,0,0,0,0,0,0,0,0,0,0,0,0,0,0,0,0,0,
0,0,0,0,0,0,0,0,0,0,0,0,0,0,0,0,0,0,0,0,0,0,0,0,0,0,0,
0,0,0,0,0,0,0,0,0,0,0,0,0,0,0,0,0,0,0,0,0,0,0,0,0,0,0,
0,0,0,0,0,0,0,0,0,0,0,0,0,0,0,0,0,0,0,0,0,0,0,0,0,0,0,
0,0,0,0,0,0,0,0,0,0,0,0,0,0,0,0,0,0,0,0,0,0,0,0,0,0,0,
0,0,0,0,0,0,0,0,0,0,0,0,0,0,0,0,0,0,0,0,0,0,0,0,0,0,0,
0,0,0,0,0,0,0,0,0,0,0,0,0,0,0,0,0,0,0,0,0,0,0,0,0,0,0,
0,0,0,0,0,0,0,0,0,0,0,0,0,0,0,0,0,0,0,0,0,0,0,0,0,0,0,
0,0,0,0,0,0,0,0,0,0,0,0,0,0,0,0,0,0,0,0,0,0,0,0,0,0,0,
0,0,0,0,0,0,0,0,0,0,0,0,0,0,0,0,0,0,0,0,0,0,0,0,0,0,0,
0,0,0,0,0,0,0,0,0,0,0,0,0,0,0,0,0,0,0,0,0,0,0,0,0,0,0,
0,0,0,0,0,0,0,0,0,0,0,0,0,0,0,0,0,0,0,0,0,0,0,0,0,0,0,
0,0,0,0,0,0,0,0,0,0,0,0,0,0,0,0,0,0,0,0,0,0,0,0,0,0,0,
0,0,0,0,0,0,0,0,0,0,0,0,0,0,0,0,0,0,0,0,0,0,0,0,0,0,0,
0,0,0,0,0,0,0,0,0,0,0,0,0,0,0,0,0,0,0,0,0,0,0,0,0,0,0,
0,0,0,0,0,0,0,0,0,0,0,0,0,0,0,0,0,0,0,0,0,0,0,0,0,0,0,
0,0,0,0,0,0,0,0,0,0,0,0,0,0,0,0,0,0,0,0,0,0,0,0,0,0,0,
0,0,0,0,0,0,0,0,0,0,0,0,0,0,0,0,0,0,0,0,0,0,0,0,0,0,0,
0,0,0,0,0,0,0,0,0,0,0,0,0,0,0,0,0,0,0,0,0,0,0,0,0,0,0,
0,0,0,0,0,0,0,0,0,0,0,0,0,0,0,0,0,0,0,0,0,0,0,0,0,0,0,
0,0,0,0,0,0,0,0,0,0,0,0,0,0,0,0,0,0,0,0,0,0,0,0,0,0,0,
0,0,0,0,0,0,0,0,0,0,0,0,0,0,0,0,0,0,0,0,0,0,0,0,0,0,0,
0,0,0,0,0,0,0,0,0,0,0,0,0,0,0,0,0,0,0,0,0,0,0,0,0,0,0
</data>
 </layer>
 <layer id="9" name="Exterior Decoration L2" width="27" height="24">
  <data encoding="csv">
0,0,0,0,0,0,0,0,0,0,0,0,0,0,0,0,0,0,0,0,0,0,0,0,0,0,0,
0,0,0,0,0,0,0,0,0,0,0,0,0,0,0,0,0,0,0,0,0,0,0,0,0,0,0,
0,0,0,0,0,0,0,0,0,0,0,0,0,0,0,0,0,0,0,0,0,0,0,0,0,0,0,
0,0,0,0,0,0,0,0,0,0,0,0,0,0,0,0,0,0,0,0,0,0,0,0,0,0,0,
0,0,0,0,0,0,0,0,0,0,0,0,0,0,0,0,0,0,0,0,0,0,0,0,0,0,0,
0,0,0,0,0,0,0,0,0,0,0,0,0,0,0,0,0,0,0,0,0,0,0,0,0,0,0,
0,0,0,0,0,0,0,0,0,0,0,0,0,0,0,0,0,0,0,0,0,0,0,0,0,0,0,
0,0,0,0,0,0,0,0,0,0,0,0,0,0,0,0,0,0,0,0,0,0,0,0,0,0,0,
0,0,0,0,0,0,0,0,0,0,0,0,0,0,0,0,0,0,0,0,0,0,0,0,0,0,0,
0,0,0,0,0,0,0,0,0,0,0,0,0,0,0,0,0,0,0,0,0,0,0,0,0,0,0,
0,0,0,0,0,0,0,0,0,0,0,0,0,0,0,0,0,0,0,0,0,0,0,0,0,0,0,
0,0,0,0,0,0,0,0,0,0,0,0,0,0,0,0,0,0,0,0,0,0,0,0,0,0,0,
0,0,0,0,0,0,0,0,0,0,0,0,0,0,0,0,0,0,0,0,0,0,0,0,0,0,0,
0,0,0,0,0,0,0,0,0,0,0,0,0,0,0,0,0,0,0,0,0,0,0,0,0,0,0,
0,0,0,0,0,0,0,0,0,0,0,0,0,0,0,0,0,0,0,0,0,0,0,0,0,0,0,
0,0,0,0,0,0,0,0,0,0,0,0,0,0,0,0,0,0,0,0,0,0,0,0,0,0,0,
0,0,0,0,0,0,0,0,0,0,0,0,0,0,0,0,0,0,0,0,0,0,0,0,0,0,0,
0,0,0,0,0,0,0,0,0,0,0,0,0,0,0,0,0,0,0,0,0,0,0,0,0,0,0,
0,0,0,0,0,0,0,0,0,0,0,0,0,0,0,0,0,0,0,0,0,0,0,0,0,0,0,
0,0,0,0,0,0,0,0,0,0,0,0,0,0,0,0,0,0,0,0,0,0,0,0,0,0,0,
0,0,0,0,0,0,0,0,0,0,0,0,0,0,0,0,0,0,0,0,0,0,0,0,0,0,0,
0,0,0,0,0,0,0,0,0,0,0,0,0,0,0,0,0,0,0,0,0,0,0,0,0,0,0,
0,0,0,0,0,0,0,0,0,0,0,0,0,0,0,0,0,0,0,0,0,0,0,0,0,0,0,
0,0,0,0,0,0,0,0,0,0,0,0,0,0,0,0,0,0,0,0,0,0,0,0,0,0,0
</data>
 </layer>
 <layer id="5" name="Interior Ground" width="27" height="24">
  <data encoding="csv">
0,0,0,0,0,0,0,0,0,0,0,0,0,0,0,0,0,0,0,0,0,0,0,0,0,0,0,
0,0,0,0,0,0,0,0,0,0,0,0,0,0,0,0,0,0,0,0,0,0,0,0,0,0,0,
0,1720,1720,1720,1720,1720,1720,1720,1720,1720,1720,1720,1720,1720,1720,1720,1720,1720,1720,1720,1720,1720,1720,1720,1720,1720,0,
0,1720,1720,1720,1720,1720,1720,1720,1720,1720,1720,1720,1720,1720,1720,1720,1720,1720,1720,1720,1720,1720,1720,1720,1720,1720,0,
0,1720,1720,1720,1720,1720,1720,1720,1720,1720,1720,1720,1720,1720,1720,1720,1720,1720,1720,1720,1720,1720,1720,1720,1720,1720,0,
0,1720,1720,1720,1720,1720,1720,1720,1720,1720,1720,1720,1720,1720,1720,1720,1720,1720,1720,1720,1720,1720,1720,1720,1720,1720,0,
0,1720,1720,1720,1720,1720,1720,1720,1720,1720,1720,1720,1720,1720,1720,1720,1720,1720,1720,1720,1720,1720,1720,1720,1720,1720,0,
0,1720,1720,1720,1720,1720,1720,1720,1720,1720,1720,1720,1720,1720,1720,1720,1720,1720,1720,1720,1720,1720,1720,1720,1720,1720,0,
0,1720,1720,1720,1720,1720,1720,1720,1720,1720,1720,1720,1720,1720,1720,1720,1720,1720,1720,1720,1720,1720,1720,1720,1720,1720,0,
0,1720,1720,1720,1720,1720,1720,1720,1720,1720,1720,1720,1720,1720,1720,1720,1720,1720,1720,1720,1720,1720,1720,1720,1720,1720,0,
0,1720,1720,1720,1720,1720,1720,1720,1720,1720,1720,1720,1720,1720,1720,1720,1720,1720,1720,1720,1720,1720,1720,1720,1720,1720,0,
0,1720,1720,1720,1720,1720,1720,1720,1720,1720,1720,1720,1720,1720,1720,1720,1720,1720,1720,1720,1720,1720,1720,1720,1720,1720,0,
0,1720,1720,1720,1720,1720,1720,1720,1720,1720,1720,1720,1720,1720,1720,1720,1720,1720,1720,1720,1720,1720,1720,1720,1720,1720,0,
0,1720,1720,1720,1720,1720,1720,1720,1720,1720,1720,1720,1720,1720,1720,1720,1720,1720,1720,1720,1720,1720,1720,1720,1720,1720,0,
0,1720,1720,1720,1720,1720,1720,1720,1720,1720,1720,1720,1720,1720,1720,1720,1720,1720,1720,1720,1720,1720,1720,1720,1720,1720,5539,
0,1720,1720,1720,1720,1720,1720,1720,1720,1720,1720,1720,1720,1720,1720,1720,1720,1720,1720,1720,1720,1720,1720,1720,1720,1720,0,
0,1720,1720,1720,1720,1720,1720,1720,1720,1720,1720,1720,1720,1720,1720,1720,1720,1720,1720,1720,1720,1720,1720,1720,1720,1720,0,
0,1720,1720,1720,1720,1720,1720,1720,1720,1720,1720,1720,1720,1720,1720,1720,1720,1720,1720,1720,1720,1720,1720,1720,1720,1720,0,
5612,5612,5612,5612,5612,5612,1720,1720,1720,1720,1720,1720,1720,1720,1720,5613,1720,1720,1720,1720,1720,1720,1720,1720,1720,1720,0,
0,0,0,0,0,0,1720,1720,1720,1720,1720,1720,1720,1720,1720,1720,1720,1720,1720,1720,1720,1720,1720,1720,1720,1720,0,
0,0,0,0,0,0,1720,1720,1720,1720,1720,1720,1720,1720,1720,1720,1720,1720,1720,1720,1720,1720,1720,1720,1720,1720,0,
0,0,0,0,0,0,1720,1720,1720,1720,1720,1720,1720,1720,1720,1720,1720,1720,1720,1720,1720,1720,1720,1720,1720,1720,0,
0,0,0,0,0,0,1720,1720,1720,1720,1720,1720,1720,1720,1720,1720,1720,1720,1720,1720,1720,1720,1720,1720,1720,1720,0,
0,0,0,0,0,0,0,0,0,0,0,0,0,0,0,0,0,0,0,0,0,0,0,0,0,0,0
</data>
 </layer>
 <layer id="3" name="Wall" width="27" height="24">
  <data encoding="csv">
5459,5612,5612,5612,5612,5612,5612,5612,5612,5612,5612,5612,5612,5612,5612,5612,5612,5612,5612,5612,5612,5612,5612,5612,5612,5612,5539,
5535,5689,5689,5689,5689,5689,5689,5689,5689,5689,5689,5689,5689,5689,5689,5689,5689,5689,5689,5689,5689,5689,5689,5689,5689,5689,5691,
5611,0,0,0,0,0,0,0,0,0,0,0,0,0,0,0,0,0,0,0,0,0,0,0,0,0,5614,
5611,0,0,0,0,0,0,0,0,0,0,0,0,0,0,0,0,0,0,0,0,0,0,0,0,0,5614,
5611,0,0,0,0,0,0,0,0,0,0,0,0,0,0,0,0,0,0,0,0,0,0,0,0,0,5614,
5611,0,0,0,0,0,0,0,0,0,0,0,0,0,0,0,0,0,0,0,0,0,0,0,0,0,5614,
5611,0,0,0,0,0,0,0,0,0,0,0,0,0,0,0,0,0,0,0,0,0,0,0,0,0,5614,
5611,0,0,0,0,0,0,0,0,0,0,0,0,0,0,0,0,0,0,0,0,0,0,0,0,0,5614,
5611,0,0,0,0,0,0,0,0,0,0,0,0,0,0,0,0,0,0,0,0,0,0,0,0,0,5614,
5611,0,0,0,0,0,0,0,0,0,0,0,0,0,0,0,0,0,0,0,0,0,0,0,0,0,5614,
5611,0,0,0,0,0,0,0,0,0,0,0,0,0,0,0,0,0,0,0,0,0,0,0,0,0,5614,
5611,0,0,0,0,0,0,0,0,0,0,0,0,0,0,0,0,0,0,0,0,0,0,0,0,0,5614,
5611,0,0,0,0,0,0,0,0,0,0,0,0,0,0,0,0,0,0,0,0,0,0,0,0,0,5614,
5611,0,0,0,0,0,0,0,0,0,0,0,0,0,0,0,0,0,0,0,0,0,0,0,0,0,5614,
5611,0,0,0,0,0,0,0,0,0,0,0,0,0,0,5459,5613,5613,5613,5612,5612,5612,5612,5612,5612,5612,5539,
5611,0,0,0,0,0,0,0,0,0,0,0,0,0,0,5535,5688,5688,5688,5688,5688,5688,5688,5688,5688,5688,5614,
5611,0,0,0,0,0,0,0,0,0,0,0,0,0,0,5611,0,0,0,0,0,0,0,0,0,0,5614,
5611,0,0,0,0,0,0,0,0,0,0,0,0,0,0,5611,0,0,0,0,0,0,0,0,0,0,5614,
5840,5840,5840,5840,5840,5539,0,0,0,0,0,0,0,0,0,5457,0,0,0,0,0,0,0,0,0,0,5614,
0,0,0,0,0,5615,0,0,0,0,0,0,0,0,0,0,0,0,0,0,0,0,0,0,0,0,5614,
0,0,0,0,0,5615,0,0,0,0,0,0,0,0,0,0,0,0,0,0,0,0,0,0,0,0,5614,
0,0,0,0,0,5615,0,0,0,0,0,0,0,0,0,0,0,0,0,0,0,0,0,0,0,0,5614,
0,0,0,0,0,5615,0,0,0,0,0,0,0,0,0,0,0,0,0,0,0,0,0,0,0,0,5614,
0,0,0,0,0,5464,5613,5613,5613,5613,5613,5613,5613,5613,5613,5613,5613,5613,5613,5613,5613,5613,5613,5613,5613,5613,5613
</data>
 </layer>
 <layer id="10" name="Interior Furniture L1" width="27" height="24">
  <data encoding="csv">
0,18997,18997,0,0,0,0,0,0,0,0,0,0,0,0,0,0,0,0,0,0,0,0,0,0,0,0,
0,19013,19013,0,0,0,0,0,0,0,0,0,0,0,0,0,0,0,0,20224,20225,0,0,31269,17225,17226,0,
0,19029,19029,0,0,0,0,0,16048,16049,16050,0,16048,16049,16050,0,16048,16049,16050,20240,20241,0,0,31285,17241,17242,0,
0,0,0,0,0,0,0,0,16064,16065,16066,0,16064,16065,16066,0,16064,16065,16066,20256,20257,0,0,31301,17257,17258,0,
0,0,0,0,0,0,0,0,0,0,0,0,0,0,0,0,0,0,0,0,0,0,0,0,0,0,0,
0,0,0,0,0,0,0,0,0,0,0,0,0,0,0,0,0,0,0,0,0,0,0,0,0,0,0,
0,0,0,0,28689,28690,0,0,28689,28690,0,0,28689,28690,0,0,28689,28690,0,0,28689,28690,0,0,0,0,0,
0,0,0,0,28705,28706,0,0,28705,28706,0,0,28705,28706,0,0,28705,28706,0,0,28705,28706,0,0,0,0,0,
0,0,0,0,0,0,0,0,0,0,0,0,0,0,0,0,0,0,0,0,0,0,0,0,0,0,0,
0,0,0,0,0,0,0,0,0,0,0,0,0,0,0,0,0,0,0,0,0,0,0,0,0,0,0,
0,0,0,0,0,0,0,0,0,0,0,0,0,0,0,0,0,0,0,0,0,0,0,0,0,0,0,
0,0,0,0,28689,28690,0,0,28689,28690,0,0,28689,28690,0,0,28689,28690,0,0,28689,28690,0,0,0,0,0,
0,0,0,0,28705,28706,0,0,28705,28706,0,0,28705,28706,0,0,28705,28706,0,0,28705,28706,0,0,0,0,0,
0,0,0,0,0,0,0,0,0,0,0,0,0,0,0,0,0,0,0,0,0,0,0,0,0,0,0,
0,0,0,0,0,0,0,0,0,0,0,0,0,0,0,0,0,0,0,0,0,0,0,0,0,0,0,
0,0,0,0,0,0,0,0,0,0,0,0,0,0,0,0,0,0,0,0,0,0,0,0,0,0,0,
0,0,0,0,0,0,0,0,28689,28690,0,0,28689,28690,0,0,0,0,0,0,28689,28690,0,0,0,0,0,
0,0,0,0,0,0,0,0,28705,28706,0,0,28705,28706,0,0,0,0,0,0,28705,28706,0,0,0,0,0,
0,0,0,0,0,0,0,0,0,0,0,0,0,0,0,0,0,0,0,0,0,0,0,0,0,0,0,
0,0,0,0,0,0,0,0,0,0,0,0,0,0,0,0,0,0,0,0,0,0,0,0,0,0,0,
0,0,0,0,0,0,0,0,0,0,0,0,0,0,0,0,0,0,0,0,0,0,0,0,0,0,0,
0,0,0,0,0,0,0,0,0,0,0,0,0,0,0,0,0,0,0,0,0,0,0,0,0,0,0,
0,0,0,0,0,0,0,0,0,0,0,0,0,0,0,0,0,0,0,0,0,0,0,0,0,0,0,
0,0,0,0,0,0,0,0,0,0,0,0,0,0,0,0,0,0,0,0,0,0,0,0,0,0,0
</data>
 </layer>
 <layer id="11" name="Interior Furniture L2 " width="27" height="24">
  <data encoding="csv">
0,0,0,0,0,0,0,0,0,0,0,0,0,0,0,0,0,0,0,0,0,0,0,0,0,0,0,
0,0,0,20238,0,0,15278,15279,0,0,0,0,0,0,0,0,0,0,0,0,0,22005,22005,0,0,0,0,
0,0,0,20254,0,0,15294,15295,0,0,0,0,0,0,0,0,0,0,0,0,0,22021,22021,0,0,0,0,
0,0,0,0,0,0,15310,15311,0,0,0,0,0,0,0,0,0,0,0,0,0,22037,22037,0,0,0,0,
0,0,0,0,0,0,0,0,0,0,0,0,0,0,0,0,0,0,0,0,0,0,0,0,0,0,0,
0,0,0,0,0,0,0,0,0,0,0,0,0,0,0,0,0,0,0,0,0,0,0,0,0,0,0,
0,0,0,0,21913,0,0,0,0,21943,0,0,0,21943,0,0,0,21943,0,0,0,21943,0,0,0,0,0,
0,0,0,0,21929,0,0,0,22009,21959,0,0,22009,21959,0,0,22009,21959,0,0,22009,21959,0,0,0,0,0,
0,0,0,0,22023,0,0,0,22025,0,0,0,22025,0,0,0,22025,0,0,0,22025,0,0,0,0,0,0,
0,0,0,0,0,0,0,0,0,0,0,0,0,0,0,0,0,0,0,0,0,0,0,0,0,0,0,
0,0,0,0,16523,16524,0,0,0,0,0,0,0,0,0,0,0,0,0,0,0,0,0,0,0,0,0,
0,0,0,0,16539,16540,0,0,0,21943,0,0,0,21943,0,0,0,21943,0,0,0,21943,0,0,0,0,0,
0,0,0,0,22009,0,0,0,22009,21959,0,0,22009,21959,0,0,22009,21959,0,0,22009,21959,0,0,0,0,0,
0,0,0,0,22025,0,0,0,22025,0,0,0,22025,0,0,0,22025,0,0,0,22025,0,0,0,0,0,0,
0,0,0,0,0,0,0,0,0,0,0,0,0,0,0,0,0,0,0,0,0,0,0,0,0,0,0,
0,20223,0,0,0,0,0,0,0,0,0,0,0,0,0,0,17225,17226,0,20238,13190,13191,0,16048,16049,16050,0,
0,20239,0,0,0,0,0,0,0,0,0,0,0,21914,0,0,17241,17242,0,20254,13206,13207,0,16064,16065,16066,0,
0,20255,0,0,0,0,0,0,22008,0,0,0,22008,21930,0,0,17257,17258,0,0,0,0,0,0,0,0,0,
0,0,0,0,0,0,0,0,22024,0,0,0,22024,0,0,0,0,0,0,0,0,0,0,0,0,0,0,
0,0,0,0,0,0,0,0,0,0,0,0,0,0,0,0,0,0,0,0,0,0,0,0,0,0,0,
0,0,0,0,0,0,18129,18130,18131,0,0,0,0,0,0,0,0,0,0,0,0,0,0,0,0,0,0,
0,0,0,0,0,0,18145,18146,18147,0,0,0,0,0,0,0,0,0,0,0,0,30674,30675,30676,30672,30673,0,
0,0,0,0,0,0,18161,18162,18163,0,0,0,0,0,0,0,0,0,0,0,0,30690,30691,30692,30688,30689,0,
0,0,0,0,0,0,0,0,0,0,0,0,0,0,0,0,0,0,0,0,0,0,0,0,0,0,0
</data>
 </layer>
 <layer id="19" name="Foreground L1" width="27" height="24">
  <data encoding="csv">
0,0,0,0,0,0,0,0,0,0,0,0,0,0,0,0,0,0,0,0,0,0,0,0,0,0,0,
0,0,0,0,0,0,0,0,0,0,0,0,0,0,0,0,0,0,0,0,0,0,0,0,0,0,0,
0,0,0,0,0,0,0,0,0,0,0,0,0,0,0,0,0,0,0,0,0,0,0,0,0,0,0,
0,0,0,0,0,0,0,0,0,0,0,0,0,0,0,0,0,0,0,0,0,0,0,0,0,0,0,
0,0,0,0,0,0,0,0,0,0,0,0,0,0,0,0,0,0,0,0,0,0,0,0,0,0,0,
0,0,0,0,0,0,0,0,0,0,0,0,0,0,0,0,0,0,0,0,0,0,0,0,0,0,0,
0,0,0,0,0,0,0,0,0,0,0,0,0,0,0,0,0,0,0,0,0,0,0,0,0,0,0,
0,0,0,0,0,0,0,0,0,0,0,0,0,0,0,0,0,0,0,0,0,0,0,0,0,0,0,
0,0,0,0,0,0,0,0,0,0,0,0,0,0,0,0,0,0,0,0,0,0,0,0,0,0,0,
0,0,0,0,0,0,0,0,0,0,0,0,0,0,0,0,0,0,0,0,0,0,0,0,0,0,0,
0,0,0,0,0,0,0,0,0,0,0,0,0,0,0,0,0,0,0,0,0,0,0,0,0,0,0,
0,0,0,0,0,0,0,0,0,0,0,0,0,0,0,0,0,0,0,0,0,0,0,0,0,0,0,
0,0,0,0,0,0,0,0,0,0,0,0,0,0,0,0,0,0,0,0,0,0,0,0,0,0,0,
0,0,0,0,0,0,0,0,0,0,0,0,0,0,0,0,0,0,0,0,0,0,0,0,0,0,0,
0,0,0,0,0,0,0,0,0,0,0,0,0,0,0,0,0,0,0,0,0,0,0,0,0,0,0,
0,0,0,0,0,0,0,0,0,0,0,0,0,0,0,0,0,0,0,0,0,0,0,0,0,0,0,
0,0,0,0,0,0,0,0,0,0,0,0,0,0,0,0,0,0,0,0,0,0,0,0,0,0,0,
0,0,0,0,0,0,0,0,0,0,0,0,0,0,0,0,0,0,0,0,0,0,0,0,0,0,0,
0,0,0,0,0,0,0,0,0,0,0,0,0,0,0,0,0,0,0,0,0,0,0,0,0,0,0,
0,0,0,0,0,0,0,0,0,0,0,0,0,0,0,0,0,0,0,0,0,0,0,0,0,0,0,
0,0,0,0,0,0,0,0,0,0,0,0,0,0,0,0,0,0,0,0,0,0,0,0,0,0,0,
0,0,0,0,0,0,0,0,0,0,0,0,0,0,0,0,0,0,0,0,0,0,0,0,0,0,0,
0,0,0,0,0,0,0,0,0,0,0,0,0,0,0,0,0,0,0,0,0,0,0,0,0,0,0,
0,0,0,0,0,0,0,0,0,0,0,0,0,0,0,0,0,0,0,0,0,0,0,0,0,0,0
</data>
 </layer>
 <layer id="20" name="Foreground L2" width="27" height="24" visible="0">
  <data encoding="csv">
0,0,0,0,0,0,0,0,0,0,0,0,0,0,0,0,0,0,0,0,0,0,0,0,0,0,0,
0,0,0,0,0,0,0,0,0,0,0,0,0,0,0,0,0,0,0,0,0,0,0,0,0,0,0,
0,0,0,0,0,0,0,0,0,0,0,0,0,0,0,0,0,0,0,0,0,0,0,0,0,0,0,
0,0,0,0,0,0,0,0,0,0,0,0,0,0,0,0,0,0,0,0,0,0,0,0,0,0,0,
0,0,0,0,0,0,0,0,0,0,0,0,0,0,0,0,0,0,0,0,0,0,0,0,0,0,0,
0,0,0,0,0,0,0,0,0,0,0,0,0,0,0,0,0,0,0,0,0,0,0,0,0,0,0,
0,0,0,0,0,0,0,0,0,0,0,0,0,0,0,0,0,0,0,0,0,0,0,0,0,0,0,
0,0,0,0,0,0,0,0,0,0,0,0,0,0,0,0,0,0,0,0,0,0,0,0,0,0,0,
0,0,0,0,0,0,0,0,0,0,0,0,0,0,0,0,0,0,0,0,0,0,0,0,0,0,0,
0,0,0,0,0,0,0,0,0,0,0,0,0,0,0,0,0,0,0,0,0,0,0,0,0,0,0,
0,0,0,0,0,0,0,0,0,0,0,0,0,0,0,0,0,0,0,0,0,0,0,0,0,0,0,
0,0,0,0,0,0,0,0,0,0,0,0,0,0,0,0,0,0,0,0,0,0,0,0,0,0,0,
0,0,0,0,0,0,0,0,0,0,0,0,0,0,0,0,0,0,0,0,0,0,0,0,0,0,0,
0,0,0,0,0,0,0,0,0,0,0,0,0,0,0,0,0,0,0,0,0,0,0,0,0,0,0,
0,0,0,0,0,0,0,0,0,0,0,0,0,0,0,0,0,0,0,0,0,0,0,0,0,0,0,
0,0,0,0,0,0,0,0,0,0,0,0,0,0,0,0,0,0,0,0,0,0,0,0,0,0,0,
0,0,0,0,0,0,0,0,0,0,0,0,0,0,0,0,0,0,0,0,0,0,0,0,0,0,0,
0,0,0,0,0,0,0,0,0,0,0,0,0,0,0,0,0,0,0,0,0,0,0,0,0,0,0,
0,0,0,0,0,0,0,0,0,0,0,0,0,0,0,0,0,0,0,0,0,0,0,0,0,0,0,
0,0,0,0,0,0,0,0,0,0,0,0,0,0,0,0,0,0,0,0,0,0,0,0,0,0,0,
0,0,0,0,0,0,0,0,0,0,0,0,0,0,0,0,0,0,0,0,0,0,0,0,0,0,0,
0,0,0,0,0,0,0,0,0,0,0,0,0,0,0,0,0,0,0,0,0,0,0,0,0,0,0,
0,0,0,0,0,0,0,0,0,0,0,0,0,0,0,0,0,0,0,0,0,0,0,0,0,0,0,
0,0,0,0,0,0,0,0,0,0,0,0,0,0,0,0,0,0,0,0,0,0,0,0,0,0,0
</data>
 </layer>
 <layer id="12" name="Collisions" width="27" height="24" opacity="0.4">
  <data encoding="csv">
32126,32126,32126,32126,32126,32126,32126,32126,32126,32126,32126,32126,32126,32126,32126,32126,32126,32126,32126,32126,32126,32126,32126,32126,32126,32126,32126,
32126,32126,32126,32126,32126,32126,32126,32126,32126,32126,32126,32126,32126,32126,32126,32126,32126,32126,32126,32126,32126,32126,32126,32126,32126,32126,32126,
32126,32126,32126,0,0,0,0,0,0,0,0,0,0,0,0,0,0,0,0,0,0,32126,32126,32126,32126,32126,32126,
32126,0,0,0,0,0,0,0,0,0,0,0,0,0,0,0,0,0,0,0,0,32126,32126,32126,32126,32126,32126,
32126,0,0,0,0,0,0,0,0,0,0,0,0,0,0,0,0,0,0,0,0,0,0,0,0,0,32126,
32126,0,0,0,0,0,0,0,0,0,0,0,0,0,0,0,0,0,0,0,0,0,0,0,0,0,32126,
32126,0,0,0,0,0,0,0,0,0,0,0,0,0,0,0,0,0,0,0,0,0,0,0,0,0,32126,
32126,0,0,0,0,0,0,0,0,0,0,0,0,0,0,0,0,0,0,0,0,0,0,0,0,0,32126,
32126,0,0,0,0,0,0,0,0,0,0,0,0,0,0,0,0,0,0,0,0,0,0,0,0,0,32126,
32126,0,0,0,0,0,0,0,0,0,0,0,0,0,0,0,0,0,0,0,0,0,0,0,0,0,32126,
32126,0,0,0,0,0,0,0,0,0,0,0,0,0,0,0,0,0,0,0,0,0,0,0,0,0,32126,
32126,0,0,0,0,0,0,0,0,0,0,0,0,0,0,0,0,0,0,0,0,0,0,0,0,0,32126,
32126,0,0,0,0,0,0,0,0,0,0,0,0,0,0,0,0,0,0,0,0,0,0,0,0,0,32126,
32126,0,0,0,0,0,0,0,0,0,0,0,0,0,0,0,0,0,0,0,0,0,0,0,0,0,32126,
32126,0,0,0,0,0,0,0,0,0,0,0,0,0,0,32126,32126,32126,32126,32126,32126,32126,32126,32126,32126,32126,32126,
32126,0,0,0,0,0,0,0,0,0,0,0,0,0,0,32126,32126,32126,32126,32126,32126,32126,32126,32126,32126,32126,32126,
32126,32126,0,0,0,0,0,0,0,0,0,0,0,0,0,32126,0,0,0,0,0,0,0,0,0,0,32126,
32126,32126,0,0,0,0,0,0,0,0,0,0,0,0,0,32126,0,0,0,0,0,0,0,0,0,0,32126,
32126,32126,32126,32126,32126,32126,0,0,0,0,0,0,0,0,0,32126,0,0,0,0,0,0,0,0,0,0,32126,
0,0,0,0,0,32126,0,0,0,0,0,0,0,0,0,0,0,0,0,0,0,0,0,0,0,0,32126,
0,0,0,0,0,32126,0,0,0,0,0,0,0,0,0,0,0,0,0,0,0,0,0,0,0,0,32126,
0,0,0,0,0,32126,32126,32126,32126,0,0,0,0,0,0,0,0,0,0,0,0,32126,32126,32126,32126,32126,32126,
0,0,0,0,0,32126,32126,32126,32126,0,0,0,0,0,0,0,0,0,0,0,0,32126,32126,32126,32126,32126,32126,
0,0,0,0,32126,32126,32126,32126,32126,32126,32126,32126,32126,32126,32126,32126,32126,32126,32126,32126,32126,32126,32126,32126,32126,32126,32126
</data>
 </layer>
 <layer id="14" name="Object Interaction Blocks" width="27" height="24" visible="0">
  <data encoding="csv">
0,0,0,0,0,0,0,0,0,0,0,0,0,0,0,0,0,0,0,0,0,0,0,0,0,0,0,
0,0,0,0,0,0,0,0,0,0,0,0,0,0,0,0,0,0,0,0,0,0,0,0,0,0,0,
0,0,0,0,0,0,0,0,0,0,0,0,0,0,0,0,0,0,0,0,0,0,0,0,0,0,0,
0,0,0,0,0,0,0,0,0,0,0,0,0,0,0,0,0,0,0,0,0,0,0,0,0,0,0,
0,0,0,0,0,0,0,0,0,0,0,0,0,0,0,0,0,0,0,0,0,0,0,0,0,0,0,
0,0,0,0,0,32279,32279,32279,0,0,0,0,0,0,0,0,0,0,32250,32250,32250,32250,0,0,0,0,0,
0,0,0,0,0,0,0,0,0,0,0,0,0,0,0,0,0,0,0,0,0,0,0,0,0,0,0,
0,0,0,0,0,0,0,0,0,0,0,0,0,0,0,0,32260,0,0,32260,0,0,0,0,0,0,0,
0,0,0,0,0,32280,0,0,0,0,0,0,0,0,0,0,0,0,0,0,0,0,0,0,0,0,0,
0,0,0,0,0,0,0,0,0,0,0,0,0,0,0,0,32260,0,0,32260,0,0,0,0,0,0,0,
0,0,0,0,0,0,0,0,0,32270,0,0,0,0,0,0,0,0,0,0,32250,0,0,0,0,0,0,
0,0,0,0,0,0,0,0,0,0,0,0,0,0,0,0,0,0,0,0,32250,0,0,0,0,0,0,
0,0,0,0,0,0,0,0,0,0,0,0,0,0,0,0,0,0,0,0,32250,0,0,0,0,0,0,
0,0,0,0,0,0,0,0,0,0,0,0,0,0,0,0,0,0,0,0,0,0,0,0,0,0,0,
0,0,0,0,0,0,0,0,0,0,0,0,0,0,0,0,0,0,0,0,0,0,0,0,0,0,0,
0,0,0,0,0,0,0,0,0,0,0,0,0,0,0,0,0,0,0,0,0,0,0,0,0,0,0,
0,0,0,0,0,0,0,0,0,0,0,0,0,0,0,0,0,0,0,0,0,0,0,0,0,0,32222,
0,0,0,0,0,0,0,0,0,0,0,0,0,0,0,0,0,0,0,0,0,0,0,0,0,32222,0,
0,0,0,0,0,0,0,0,0,0,0,0,0,0,0,0,0,0,0,0,0,0,0,0,0,32222,0,
0,0,0,0,0,0,0,0,0,0,0,0,0,0,0,0,0,0,0,0,0,0,0,0,0,32222,0,
0,0,0,0,0,0,0,0,0,0,0,0,0,0,0,0,0,0,0,0,0,0,0,0,0,32222,0,
0,0,0,0,0,0,0,0,0,0,0,0,0,0,0,0,0,0,0,0,0,0,0,0,0,32222,0,
0,0,0,0,0,0,0,0,0,0,0,0,0,0,0,32222,32222,32222,32222,32222,32222,32222,32222,32222,32222,32222,32222,
0,0,0,0,0,0,0,0,0,0,0,0,0,0,0,32222,0,0,0,0,0,0,0,0,0,0,32222
</data>
 </layer>
 <layer id="13" name="Arena Blocks" width="27" height="24" visible="0">
  <data encoding="csv">
0,0,0,0,0,0,0,0,0,0,0,0,0,0,0,0,0,0,0,0,0,0,0,0,0,0,0,
0,0,0,0,0,0,0,0,0,0,0,0,0,0,0,0,0,0,0,0,0,0,0,0,0,0,0,
0,32140,32140,32140,32140,32140,32140,32140,32140,32140,32140,32140,32140,32140,32140,32140,32140,32140,32140,32140,32140,32140,32140,32140,32140,32140,0,
0,32140,32140,32140,32140,32140,32140,32140,32140,32140,32140,32140,32140,32140,32140,32140,32140,32140,32140,32140,32140,32140,32140,32140,32140,32140,0,
0,32140,32140,32140,32140,32140,32140,32140,32140,32140,32140,32140,32140,32140,32140,32140,32140,32140,32140,32140,32140,32140,32140,32140,32140,32140,0,
0,32140,32140,32140,32140,32140,32140,32140,32140,32140,32140,32140,32140,32140,32140,32140,32140,32140,32140,32140,32140,32140,32140,32140,32140,32140,0,
0,32140,32140,32140,32140,32140,32140,32140,32140,32140,32140,32140,32140,32140,32140,32140,32140,32140,32140,32140,32140,32140,32140,32140,32140,32140,0,
0,32140,32140,32140,32140,32140,32140,32140,32140,32140,32140,32140,32140,32140,32140,32140,32140,32140,32140,32140,32140,32140,32140,32140,32140,32140,0,
0,32140,32140,32140,32140,32140,32140,32140,32140,32140,32140,32140,32140,32140,32140,32140,32140,32140,32140,32140,32140,32140,32140,32140,32140,32140,0,
0,32140,32140,32140,32140,32140,32140,32140,32140,32140,32140,32140,32140,32140,32140,32140,32140,32140,32140,32140,32140,32140,32140,32140,32140,32140,0,
0,32140,32140,32140,32140,32140,32140,32140,32140,32140,32140,32140,32140,32140,32140,32140,32140,32140,32140,32140,32140,32140,32140,32140,32140,32140,0,
0,32140,32140,32140,32140,32140,32140,32140,32140,32140,32140,32140,32140,32140,32140,32140,32140,32140,32140,32140,32140,32140,32140,32140,32140,32140,0,
0,32140,32140,32140,32140,32140,32140,32140,32140,32140,32140,32140,32140,32140,32140,32140,32140,32140,32140,32140,32140,32140,32140,32140,32140,32140,0,
0,32140,32140,32140,32140,32140,32140,32140,32140,32140,32140,32140,32140,32140,32140,32140,32140,32140,32140,32140,32140,32140,32140,32140,32140,32140,0,
0,32140,32140,32140,32140,32140,32140,32140,32140,32140,32140,32140,32140,32140,32140,0,0,0,0,0,0,0,0,0,0,0,0,
0,32140,32140,32140,32140,32140,32140,32140,32140,32140,32140,32140,32140,32140,32140,0,0,0,0,0,0,0,0,0,0,0,0,
0,32140,32140,32140,32140,32140,32140,32140,32140,32140,32140,32140,32140,32140,32140,0,32141,32141,32141,32141,32141,32141,32141,32141,32141,32141,0,
0,32140,32140,32140,32140,32140,32140,32140,32140,32140,32140,32140,32140,32140,32140,0,32141,32141,32141,32141,32141,32141,32141,32141,32141,32141,0,
0,0,0,0,0,0,32140,32140,32140,32140,32140,32140,32140,32140,32140,0,32141,32141,32141,32141,32141,32141,32141,32141,32141,32141,0,
0,0,0,0,0,0,32140,32140,32140,32140,32140,32140,32140,32140,32140,32141,32141,32141,32141,32141,32141,32141,32141,32141,32141,32141,0,
0,0,0,0,0,0,32140,32140,32140,32140,32140,32140,32140,32140,32140,32141,32141,32141,32141,32141,32141,32141,32141,32141,32141,32141,0,
0,0,0,0,0,0,32140,32140,32140,32140,32140,32140,32140,32140,32140,32141,32141,32141,32141,32141,32141,32141,32141,32141,32141,32141,0,
0,0,0,0,0,0,32140,32140,32140,32140,32140,32140,32140,32140,32140,32141,32141,32141,32141,32141,32141,32141,32141,32141,32141,32141,0,
0,0,0,0,0,0,0,0,0,0,0,0,0,0,0,0,0,0,0,0,0,0,0,0,0,0,0
</data>
 </layer>
 <layer id="16" name="Sector Blocks" width="27" height="24" visible="0">
  <data encoding="csv">
0,0,0,0,0,0,0,0,0,0,0,0,0,0,0,0,0,0,0,0,0,0,0,0,0,0,0,
0,0,0,0,0,0,0,0,0,0,0,0,0,0,0,0,0,0,0,0,0,0,0,0,0,0,0,
32164,32164,32164,32164,32164,32164,32164,32164,32164,32164,32164,32164,32164,32164,32164,32164,32164,32164,32164,32164,32164,32164,32164,32164,32164,32164,32164,
32164,32164,32164,32164,32164,32164,32164,32164,32164,32164,32164,32164,32164,32164,32164,32164,32164,32164,32164,32164,32164,32164,32164,32164,32164,32164,32164,
32164,32164,32164,32164,32164,32164,32164,32164,32164,32164,32164,32164,32164,32164,32164,32164,32164,32164,32164,32164,32164,32164,32164,32164,32164,32164,32164,
32164,32164,32164,32164,32164,32164,32164,32164,32164,32164,32164,32164,32164,32164,32164,32164,32164,32164,32164,32164,32164,32164,32164,32164,32164,32164,32164,
32164,32164,32164,32164,32164,32164,32164,32164,32164,32164,32164,32164,32164,32164,32164,32164,32164,32164,32164,32164,32164,32164,32164,32164,32164,32164,32164,
32164,32164,32164,32164,32164,32164,32164,32164,32164,32164,32164,32164,32164,32164,32164,32164,32164,32164,32164,32164,32164,32164,32164,32164,32164,32164,32164,
32164,32164,32164,32164,32164,32164,32164,32164,32164,32164,32164,32164,32164,32164,32164,32164,32164,32164,32164,32164,32164,32164,32164,32164,32164,32164,32164,
32164,32164,32164,32164,32164,32164,32164,32164,32164,32164,32164,32164,32164,32164,32164,32164,32164,32164,32164,32164,32164,32164,32164,32164,32164,32164,32164,
32164,32164,32164,32164,32164,32164,32164,32164,32164,32164,32164,32164,32164,32164,32164,32164,32164,32164,32164,32164,32164,32164,32164,32164,32164,32164,32164,
32164,32164,32164,32164,32164,32164,32164,32164,32164,32164,32164,32164,32164,32164,32164,32164,32164,32164,32164,32164,32164,32164,32164,32164,32164,32164,32164,
32164,32164,32164,32164,32164,32164,32164,32164,32164,32164,32164,32164,32164,32164,32164,32164,32164,32164,32164,32164,32164,32164,32164,32164,32164,32164,32164,
32164,32164,32164,32164,32164,32164,32164,32164,32164,32164,32164,32164,32164,32164,32164,32164,32164,32164,32164,32164,32164,32164,32164,32164,32164,32164,32164,
32164,32164,32164,32164,32164,32164,32164,32164,32164,32164,32164,32164,32164,32164,32164,0,0,0,0,0,0,0,0,0,0,0,0,
32164,32164,32164,32164,32164,32164,32164,32164,32164,32164,32164,32164,32164,32164,32164,0,0,0,0,0,0,0,0,0,0,0,0,
32164,32164,32164,32164,32164,32164,32164,32164,32164,32164,32164,32164,32164,32164,32164,0,32174,32174,32174,32174,32174,32174,32174,32174,32174,32174,32174,
32164,32164,32164,32164,32164,32164,32164,32164,32164,32164,32164,32164,32164,32164,32164,0,32174,32174,32174,32174,32174,32174,32174,32174,32174,32174,32174,
0,0,0,0,0,0,32164,32164,32164,32164,32164,32164,32164,32164,32164,0,32174,32174,32174,32174,32174,32174,32174,32174,32174,32174,32174,
0,0,0,0,0,0,32164,32164,32164,32164,32164,32164,32164,32164,32164,32174,32174,32174,32174,32174,32174,32174,32174,32174,32174,32174,32174,
0,0,0,0,0,0,32164,32164,32164,32164,32164,32164,32164,32164,32164,32174,32174,32174,32174,32174,32174,32174,32174,32174,32174,32174,32174,
0,0,0,0,0,0,32164,32164,32164,32164,32164,32164,32164,32164,32164,32174,32174,32174,32174,32174,32174,32174,32174,32174,32174,32174,32174,
0,0,0,0,0,0,32164,32164,32164,32164,32164,32164,32164,32164,32164,32174,32174,32174,32174,32174,32174,32174,32174,32174,32174,32174,32174,
0,0,0,0,0,0,0,0,0,0,0,0,0,0,0,0,0,0,0,0,0,0,0,0,0,0,0
</data>
 </layer>
 <layer id="17" name="World Blocks" width="27" height="24" visible="0">
  <data encoding="csv">
32134,32134,32134,32134,32134,32134,32134,32134,32134,32134,32134,32134,32134,32134,32134,32134,32134,32134,32134,32134,32134,32134,32134,32134,32134,32134,32134,
32134,32134,32134,32134,32134,32134,32134,32134,32134,32134,32134,32134,32134,32134,32134,32134,32134,32134,32134,32134,32134,32134,32134,32134,32134,32134,32134,
32134,32134,32134,32134,32134,32134,32134,32134,32134,32134,32134,32134,32134,32134,32134,32134,32134,32134,32134,32134,32134,32134,32134,32134,32134,32134,32134,
32134,32134,32134,32134,32134,32134,32134,32134,32134,32134,32134,32134,32134,32134,32134,32134,32134,32134,32134,32134,32134,32134,32134,32134,32134,32134,32134,
32134,32134,32134,32134,32134,32134,32134,32134,32134,32134,32134,32134,32134,32134,32134,32134,32134,32134,32134,32134,32134,32134,32134,32134,32134,32134,32134,
32134,32134,32134,32134,32134,32134,32134,32134,32134,32134,32134,32134,32134,32134,32134,32134,32134,32134,32134,32134,32134,32134,32134,32134,32134,32134,32134,
32134,32134,32134,32134,32134,32134,32134,32134,32134,32134,32134,32134,32134,32134,32134,32134,32134,32134,32134,32134,32134,32134,32134,32134,32134,32134,32134,
32134,32134,32134,32134,32134,32134,32134,32134,32134,32134,32134,32134,32134,32134,32134,32134,32134,32134,32134,32134,32134,32134,32134,32134,32134,32134,32134,
32134,32134,32134,32134,32134,32134,32134,32134,32134,32134,32134,32134,32134,32134,32134,32134,32134,32134,32134,32134,32134,32134,32134,32134,32134,32134,32134,
32134,32134,32134,32134,32134,32134,32134,32134,32134,32134,32134,32134,32134,32134,32134,32134,32134,32134,32134,32134,32134,32134,32134,32134,32134,32134,32134,
32134,32134,32134,32134,32134,32134,32134,32134,32134,32134,32134,32134,32134,32134,32134,32134,32134,32134,32134,32134,32134,32134,32134,32134,32134,32134,32134,
32134,32134,32134,32134,32134,32134,32134,32134,32134,32134,32134,32134,32134,32134,32134,32134,32134,32134,32134,32134,32134,32134,32134,32134,32134,32134,32134,
32134,32134,32134,32134,32134,32134,32134,32134,32134,32134,32134,32134,32134,32134,32134,32134,32134,32134,32134,32134,32134,32134,32134,32134,32134,32134,32134,
32134,32134,32134,32134,32134,32134,32134,32134,32134,32134,32134,32134,32134,32134,32134,32134,32134,32134,32134,32134,32134,32134,32134,32134,32134,32134,32134,
32134,32134,32134,32134,32134,32134,32134,32134,32134,32134,32134,32134,32134,32134,32134,32134,32134,32134,32134,32134,32134,32134,32134,32134,32134,32134,32134,
32134,32134,32134,32134,32134,32134,32134,32134,32134,32134,32134,32134,32134,32134,32134,32134,32134,32134,32134,32134,32134,32134,32134,32134,32134,32134,32134,
32134,32134,32134,32134,32134,32134,32134,32134,32134,32134,32134,32134,32134,32134,32134,32134,32134,32134,32134,32134,32134,32134,32134,32134,32134,32134,32134,
32134,32134,32134,32134,32134,32134,32134,32134,32134,32134,32134,32134,32134,32134,32134,32134,32134,32134,32134,32134,32134,32134,32134,32134,32134,32134,32134,
32134,32134,32134,32134,32134,32134,32134,32134,32134,32134,32134,32134,32134,32134,32134,32134,32134,32134,32134,32134,32134,32134,32134,32134,32134,32134,32134,
32134,32134,32134,32134,32134,32134,32134,32134,32134,32134,32134,32134,32134,32134,32134,32134,32134,32134,32134,32134,32134,32134,32134,32134,32134,32134,32134,
32134,32134,32134,32134,32134,32134,32134,32134,32134,32134,32134,32134,32134,32134,32134,32134,32134,32134,32134,32134,32134,32134,32134,32134,32134,32134,32134,
32134,32134,32134,32134,32134,32134,32134,32134,32134,32134,32134,32134,32134,32134,32134,32134,32134,32134,32134,32134,32134,32134,32134,32134,32134,32134,32134,
32134,32134,32134,32134,32134,32134,32134,32134,32134,32134,32134,32134,32134,32134,32134,32134,32134,32134,32134,32134,32134,32134,32134,32134,32134,32134,32134,
32134,32134,32134,32134,32134,32134,32134,32134,32134,32134,32134,32134,32134,32134,32134,32134,32134,32134,32134,32134,32134,32134,32134,32134,32134,32134,32134
</data>
 </layer>
 <layer id="15" name="Spawning Blocks" width="27" height="24" visible="0" opacity="0.68">
  <data encoding="csv">
0,0,0,0,0,0,0,0,0,0,0,0,0,0,0,0,0,0,0,0,0,0,0,0,0,0,0,
0,0,0,0,0,0,0,0,0,0,0,0,0,0,0,0,0,0,0,0,0,0,0,0,0,0,0,
0,0,0,0,0,0,0,0,0,0,0,0,0,0,0,0,0,0,0,0,0,0,0,0,0,0,0,
0,0,0,0,0,0,0,0,0,0,0,0,0,0,0,0,0,0,0,0,0,0,0,0,0,0,0,
0,0,0,0,0,0,0,0,0,0,0,0,0,0,0,0,0,0,0,0,0,0,0,0,0,0,0,
0,0,0,0,0,0,0,0,0,0,0,0,0,0,0,0,0,0,0,0,0,0,0,0,0,0,0,
0,0,0,0,0,0,0,0,0,0,0,0,0,0,0,0,0,0,0,0,0,0,0,0,0,0,0,
0,0,0,0,0,0,0,0,0,0,0,0,0,0,0,0,0,0,0,0,0,0,0,0,0,0,0,
0,0,0,0,0,0,0,0,0,0,0,0,0,0,0,0,0,0,0,0,0,0,0,0,0,0,0,
0,0,0,0,0,0,0,0,0,0,0,0,0,0,0,0,0,0,0,0,0,0,0,0,0,0,0,
0,0,0,0,0,0,0,0,0,0,0,0,0,0,0,0,0,0,0,0,0,0,0,0,0,0,0,
0,0,0,0,0,0,0,0,0,0,0,0,0,0,0,0,0,0,0,0,0,0,0,0,0,0,0,
0,0,0,0,0,0,0,0,0,0,0,0,0,0,0,0,0,0,0,0,0,0,0,0,0,0,0,
0,0,0,0,0,0,0,0,0,0,0,0,0,0,0,0,0,0,0,0,0,0,0,0,0,0,0,
0,0,0,0,0,0,0,0,0,0,0,0,0,0,0,0,0,0,0,0,0,0,0,0,0,0,0,
0,0,0,0,0,0,0,0,0,0,0,0,0,0,0,0,0,0,0,0,0,0,0,0,0,0,0,
0,0,0,0,0,0,0,0,0,0,0,0,0,0,0,0,0,0,0,0,0,0,0,0,0,0,0,
0,0,0,0,0,0,0,0,0,0,0,0,0,0,0,0,0,0,0,0,0,0,0,0,0,0,0,
0,0,0,0,0,0,0,0,0,0,0,0,0,0,0,0,0,0,0,0,0,0,0,0,0,0,0,
0,0,0,0,0,0,0,0,0,0,0,0,0,0,0,0,0,0,0,0,0,0,0,0,0,0,0,
0,0,0,0,0,0,0,0,0,0,0,0,0,0,0,0,0,0,0,0,0,0,0,0,0,0,0,
0,0,0,0,0,0,0,0,0,0,0,0,0,0,0,0,0,0,0,0,0,0,0,0,0,0,0,
0,0,0,0,0,0,0,0,0,0,0,0,0,0,0,0,0,0,0,0,0,0,0,0,0,0,0,
0,0,0,0,0,0,0,0,0,0,0,0,0,0,0,0,0,0,0,0,0,0,0,0,0,0,0
</data>
 </layer>
 <layer id="18" name="Special Blocks Registry" width="27" height="24" visible="0">
  <data encoding="csv">
0,0,0,0,0,0,0,0,0,0,0,0,0,0,0,0,0,0,0,0,0,0,0,0,0,0,0,
0,0,0,0,0,0,0,0,0,0,0,0,0,0,0,0,0,0,0,0,0,0,0,0,0,0,0,
0,0,0,0,0,0,0,0,0,0,0,0,0,0,0,0,0,0,0,0,0,0,0,0,0,0,0,
0,0,0,0,0,0,0,0,0,0,0,0,0,0,0,0,0,0,0,0,0,0,0,0,0,0,0,
0,0,0,0,0,0,0,0,0,0,0,0,0,0,0,0,0,0,0,0,0,0,0,0,0,0,0,
0,0,0,0,0,0,0,0,0,0,0,0,0,0,0,0,0,0,0,0,0,0,0,0,0,0,0,
0,0,0,0,0,0,0,0,0,0,0,0,0,0,0,0,0,0,0,0,0,0,0,0,0,0,0,
0,0,0,0,0,0,0,0,0,0,0,0,0,0,0,0,0,0,0,0,0,0,0,0,0,0,0,
0,0,0,0,0,0,0,0,0,0,0,0,0,0,0,0,0,0,0,0,0,0,0,0,0,0,0,
0,0,0,0,0,0,0,0,0,0,0,0,0,0,0,0,0,0,0,0,0,0,0,0,0,0,0,
0,0,0,0,0,0,0,0,0,0,0,0,0,0,0,0,0,0,0,0,0,0,0,0,0,0,0,
0,0,0,0,0,0,0,0,0,0,0,0,0,0,0,0,0,0,0,0,0,0,0,0,0,0,0,
0,0,0,0,0,0,0,0,0,0,0,0,0,0,0,0,0,0,0,0,0,0,0,0,0,0,0,
0,0,0,0,0,0,0,0,0,0,0,0,0,0,0,0,0,0,0,0,0,0,0,0,0,0,0,
0,0,0,0,0,0,0,0,0,0,0,0,0,0,0,0,0,0,0,0,0,0,0,0,0,0,0,
0,0,0,0,0,0,0,0,0,0,0,0,0,0,0,0,0,0,0,0,0,0,0,0,0,0,0,
0,0,0,0,0,0,0,0,0,0,0,0,0,0,0,0,0,0,0,0,0,0,0,0,0,0,0,
0,0,0,0,0,0,0,0,0,0,0,0,0,0,0,0,0,0,0,0,0,0,0,0,0,0,0,
0,0,0,0,0,0,0,0,0,0,0,0,0,0,0,0,0,0,0,0,0,0,0,0,0,0,0,
0,0,0,0,0,0,0,0,0,0,0,0,0,0,0,0,0,0,0,0,0,0,0,0,0,0,0,
0,0,0,0,0,0,0,0,0,0,0,0,0,0,0,0,0,0,0,0,0,0,0,0,0,0,0,
0,0,0,0,0,0,0,0,0,0,0,0,0,0,0,0,0,0,0,0,0,0,0,0,0,0,0,
0,0,0,0,0,0,0,0,0,0,0,0,0,0,0,0,0,0,0,0,0,0,0,0,0,0,0,
0,0,0,0,0,0,0,0,0,0,0,0,0,0,0,0,0,0,0,0,0,0,0,0,0,0,0
</data>
 </layer>
</map>
