<?xml version="1.0" encoding="UTF-8"?>
<map version="1.10" tiledversion="1.12.2" orientation="orthogonal" renderorder="right-down" width="27" height="24" tilewidth="32" tileheight="32" infinite="0" nextlayerid="21" nextobjectid="1">
 <tileset firstgid="1" name="CuteRPG_Field_B" tilewidth="32" tileheight="32" tilecount="256" columns="16">
  <image source="CuteRPG_Field_B.png" trans="ff00ff" width="512" height="512"/>
 </tileset>
 <tileset firstgid="257" name="CuteRPG_Field_C" tilewidth="32" tileheight="32" tilecount="256" columns="16">
  <image source="CuteRPG_Field_C.png" trans="ff00ff" width="512" height="512"/>
 </tileset>
 <tileset firstgid="513" name="CuteRPG_Harbor_C" tilewidth="32" tileheight="32" tilecount="256" columns="16">
  <image source="CuteRPG_Harbor_C.png" trans="ff00ff" width="512" height="512"/>
 </tileset>
 <tileset firstgid="769" name="Room_Builder_32x32" tilewidth="32" tileheight="32" tilecount="8284" columns="76">
  <image source="Room_Builder_32x32.png" trans="ff00ff" width="2432" height="3488"/>
 </tileset>
 <tileset firstgid="9053" name="CuteRPG_Village_B" tilewidth="32" tileheight="32" tilecount="256" columns="16">
  <image source="CuteRPG_Village_B.png" trans="ff00ff" width="512" height="512"/>
 </tileset>
 <tileset firstgid="9309" name="CuteRPG_Forest_B" tilewidth="32" tileheight="32" tilecount="256" columns="16">
  <image source="CuteRPG_Forest_B.png" trans="ff00ff" width="512" height="512"/>
 </tileset>
 <tileset firstgid="9565" name="CuteRPG_Desert_C" tilewidth="32" tileheight="32" tilecount="256" columns="16">
  <image source="CuteRPG_Desert_C.png" trans="ff00ff" width="512" height="512"/>
 </tileset>
 <tileset firstgid="9821" name="CuteRPG_Mountains_B" tilewidth="32" tileheight="32" tilecount="256" columns="16">
  <image source="CuteRPG_Mountains_B.png" trans="ff00ff" width="512" height="512"/>
 </tileset>
 <tileset firstgid="10077" name="CuteRPG_Desert_B" tilewidth="32" tileheight="32" tilecount="256" columns="16">
  <image source="CuteRPG_Desert_B.png" trans="ff00ff" width="512" height="512"/>
 </tileset>
 <tileset firstgid="10333" name="CuteRPG_Forest_C" tilewidth="32" tileheight="32" tilecount="256" columns="16">
  <image source="CuteRPG_Forest_C.png" trans="ff00ff" width="512" height="512"/>
 </tileset>
 <tileset firstgid="10589" name="interiors_pt1" tilewidth="32" tileheight="32" tilecount="5008" columns="16">
  <image source="interiors_pt1.png" trans="ff00ff" width="512" height="10016"/>
 </tileset>
 <tileset firstgid="15597" name="interiors_pt2" tilewidth="32" tileheight="32" tilecount="5008" columns="16">
  <image source="interiors_pt2.png" trans="ff00ff" width="512" height="10016"/>
 </tileset>
 <tileset firstgid="20605" name="interiors_pt3" tilewidth="32" tileheight="32" tilecount="5008" columns="16">
  <image source="interiors_pt3.png" trans="ff00ff" width="512" height="10032"/>
 </tileset>
 <tileset firstgid="25613" name="interiors_pt4" tilewidth="32" tileheight="32" tilecount="2000" columns="16">
  <image source="interiors_pt4.png" trans="ff00ff" width="512" height="4000"/>
 </tileset>
 <tileset firstgid="27613" name="interiors_pt5" tilewidth="32" tileheight="32" tilecount="4512" columns="16">
  <image source="interiors_pt5.png" trans="ff00ff" width="512" height="9024"/>
 </tileset>
 <tileset firstgid="32125" name="blocks" tilewidth="32" tileheight="32" tilecount="80" columns="10">
  <image source="blocks_1.png" trans="ff00ff" width="320" height="256"/>
 </tileset>
 <tileset firstgid="32205" name="blocks_2" tilewidth="32" tileheight="32" tilecount="80" columns="10">
  <image source="blocks_2.png" trans="ff00ff" width="320" height="256"/>
 </tileset>
 <tileset firstgid="32285" name="blocks_3" tilewidth="32" tileheight="32" tilecount="40" columns="10">
  <image source="blocks_3.png" trans="ff00ff" width="320" height="128"/>
 </tileset>
 <tileset firstgid="32325" source="../../../../../../../素材_trading_32/trading_32.tsx"/>
 <tileset firstgid="32325" source="../../../../../../../素材_trading_32/trading_grid.tsx"/>
 <layer id="1" name="Bottom Ground" width="27" height="24">
  <data encoding="csv">
32126,32126,32126,32126,32126,32126,32126,32126,32126,32126,32126,32126,32126,32126,32126,32126,32126,32126,32126,32126,32126,32126,32126,32126,32126,32126,32126,
32126,32126,32126,32126,32126,32126,32126,32126,32126,32126,32126,32126,32126,32126,32126,32126,32126,32126,32126,32126,32126,32126,32126,32126,32126,32126,32126,
32126,32126,32126,32126,32126,32126,32126,32126,32126,32126,32126,32126,32126,32126,32126,32126,32126,32126,32126,32126,32126,32126,32126,32126,32126,32126,32126,
32126,32126,32126,32126,32126,32126,32126,32126,32126,32126,32126,32126,32126,32126,32126,32126,32126,32126,32126,32126,32126,32126,32126,32126,32126,32126,32126,
32126,32126,32126,32126,32126,32126,32126,32126,32126,32126,32126,32126,32126,32126,32126,32126,32126,32126,32126,32126,32126,32126,32126,32126,32126,32126,32126,
32126,32126,32126,32126,32126,32126,32126,32126,32126,32126,32126,32126,32126,32126,32126,32126,32126,32126,32126,32126,32126,32126,32126,32126,32126,32126,32126,
32126,32126,32126,32126,32126,32126,32126,32126,32126,32126,32126,32126,32126,32126,32126,32126,32126,32126,32126,32126,32126,32126,32126,32126,32126,32126,32126,
32126,32126,32126,32126,32126,32126,32126,32126,32126,32126,32126,32126,32126,32126,32126,32126,32126,32126,32126,32126,32126,32126,32126,32126,32126,32126,32126,
32126,32126,32126,32126,32126,32126,32126,32126,32126,32126,32126,32126,32126,32126,32126,32126,32126,32126,32126,32126,32126,32126,32126,32126,32126,32126,32126,
32126,32126,32126,32126,32126,32126,32126,32126,32126,32126,32126,32126,32126,32126,32126,32126,32126,32126,32126,32126,32126,32126,32126,32126,32126,32126,32126,
32126,32126,32126,32126,32126,32126,32126,32126,32126,32126,32126,32126,32126,32126,32126,32126,32126,32126,32126,32126,32126,32126,32126,32126,32126,32126,32126,
32126,32126,32126,32126,32126,32126,32126,32126,32126,32126,32126,32126,32126,32126,32126,32126,32126,32126,32126,32126,32126,32126,32126,32126,32126,32126,32126,
32126,32126,32126,32126,32126,32126,32126,32126,32126,32126,32126,32126,32126,32126,32126,32126,32126,32126,32126,32126,32126,32126,32126,32126,32126,32126,32126,
32126,32126,32126,32126,32126,32126,32126,32126,32126,32126,32126,32126,32126,32126,32126,32126,32126,32126,32126,32126,32126,32126,32126,32126,32126,32126,32126,
32126,32126,32126,32126,32126,32126,32126,32126,32126,32126,32126,32126,32126,32126,32126,32126,32126,32126,32126,32126,32126,32126,32126,32126,32126,32126,32126,
32126,32126,32126,32126,32126,32126,32126,32126,32126,32126,32126,32126,32126,32126,32126,32126,32126,32126,32126,32126,32126,32126,32126,32126,32126,32126,32126,
32126,32126,32126,32126,32126,32126,32126,32126,32126,32126,32126,32126,32126,32126,32126,32126,32126,32126,32126,32126,32126,32126,32126,32126,32126,32126,32126,
32126,32126,32126,32126,32126,32126,32126,32126,32126,32126,32126,32126,32126,32126,32126,32126,32126,32126,32126,32126,32126,32126,32126,32126,32126,32126,32126,
32126,32126,32126,32126,32126,32126,32126,32126,32126,32126,32126,32126,32126,32126,32126,32126,32126,32126,32126,32126,32126,32126,32126,32126,32126,32126,32126,
32126,32126,32126,32126,32126,32126,32126,32126,32126,32126,32126,32126,32126,32126,32126,32126,32126,32126,32126,32126,32126,32126,32126,32126,32126,32126,32126,
32126,32126,32126,32126,32126,32126,32126,32126,32126,32126,32126,32126,32126,32126,32126,32126,32126,32126,32126,32126,32126,32126,32126,32126,32126,32126,32126,
32126,32126,32126,32126,32126,32126,32126,32126,32126,32126,32126,32126,32126,32126,32126,32126,32126,32126,32126,32126,32126,32126,32126,32126,32126,32126,32126,
32126,32126,32126,32126,32126,32126,32126,32126,32126,32126,32126,32126,32126,32126,32126,32126,32126,32126,32126,32126,32126,32126,32126,32126,32126,32126,32126,
32126,32126,32126,32126,32126,32126,32126,32126,32126,32126,32126,32126,32126,32126,32126,32126,32126,32126,32126,32126,32126,32126,32126,32126,32126,32126,32126
</data>
 </layer>
 <layer id="4" name="Exterior Ground" width="27" height="24">
  <data encoding="csv">
0,0,0,0,0,0,0,0,0,0,0,0,0,0,0,0,0,0,0,0,0,0,0,0,0,0,0,
0,0,0,0,0,0,0,0,0,0,0,0,0,0,0,0,0,0,0,0,0,0,0,0,0,0,0,
0,0,0,0,0,0,0,0,0,0,0,0,0,0,0,0,0,0,0,0,0,0,0,0,0,0,0,
0,0,0,0,0,0,0,0,0,0,0,0,0,0,0,0,0,0,0,0,0,0,0,0,0,0,0,
0,0,0,0,0,0,0,0,0,0,0,0,0,0,0,0,0,0,0,0,0,0,0,0,0,0,0,
0,0,0,0,0,0,0,0,0,0,0,0,0,0,0,0,0,0,0,0,0,0,0,0,0,0,0,
0,0,0,0,0,0,0,0,0,0,0,0,0,0,0,0,0,0,0,0,0,0,0,0,0,0,0,
0,0,0,0,0,0,0,0,0,0,0,0,0,0,0,0,0,0,0,0,0,0,0,0,0,0,0,
0,0,0,0,0,0,0,0,0,0,0,0,0,0,0,0,0,0,0,0,0,0,0,0,0,0,0,
0,0,0,0,0,0,0,0,0,0,0,0,0,0,0,0,0,0,0,0,0,0,0,0,0,0,0,
0,0,0,0,0,0,0,0,0,0,0,0,0,0,0,0,0,0,0,0,0,0,0,0,0,0,0,
0,0,0,0,0,0,0,0,0,0,0,0,0,0,0,0,0,0,0,0,0,0,0,0,0,0,0,
0,0,0,0,0,0,0,0,0,0,0,0,0,0,0,0,0,0,0,0,0,0,0,0,0,0,0,
0,0,0,0,0,0,0,0,0,0,0,0,0,0,0,0,0,0,0,0,0,0,0,0,0,0,0,
0,0,0,0,0,0,0,0,0,0,0,0,0,0,0,0,0,0,0,0,0,0,0,0,0,0,0,
0,0,0,0,0,0,0,0,0,0,0,0,0,0,0,0,0,0,0,0,0,0,0,0,0,0,0,
0,0,0,0,0,0,0,0,0,0,0,0,0,0,0,0,0,0,0,0,0,0,0,0,0,0,0,
0,0,0,0,0,0,0,0,0,0,0,0,0,0,0,0,0,0,0,0,0,0,0,0,0,0,0,
0,0,0,0,0,0,0,0,0,0,0,0,0,0,0,0,0,0,0,0,0,0,0,0,0,0,0,
0,0,0,0,0,0,0,0,0,0,0,0,0,0,0,0,0,0,0,0,0,0,0,0,0,0,0,
0,0,0,0,0,0,0,0,0,0,0,0,0,0,0,0,0,0,0,0,0,0,0,0,0,0,0,
0,0,0,0,0,0,0,0,0,0,0,0,0,0,0,0,0,0,0,0,0,0,0,0,0,0,0,
0,0,0,0,0,0,0,0,0,0,0,0,0,0,0,0,0,0,0,0,0,0,0,0,0,0,0,
0,0,0,0,0,0,0,0,0,0,0,0,0,0,0,0,0,0,0,0,0,0,0,0,0,0,0
</data>
 </layer>
 <layer id="6" name="Exterior Decoration L1" width="27" height="24">
  <data encoding="csv">
0,0,0,0,0,0,0,0,0,0,0,0,0,0,0,0,0,0,0,0,0,0,0,0,0,0,0,
0,0,0,0,0,0,0,0,0,0,0,0,0,0,0,0,0,0,0,0,0,0,0,0,0,0,0,
0,0,0,0,0,0,0,0,0,0,0,0,0,0,0,0,0,0,0,0,0,0,0,0,0,0,0,
0,0,0,0,0,0,0,0,0,0,0,0,0,0,0,0,0,0,0,0,0,0,0,0,0,0,0,
0,0,0,0,0,0,0,0,0,0,0,0,0,0,0,0,0,0,0,0,0,0,0,0,0,0,0,
0,0,0,0,0,0,0,0,0,0,0,0,0,0,0,0,0,0,0,0,0,0,0,0,0,0,0,
0,0,0,0,0,0,0,0,0,0,0,0,0,0,0,0,0,0,0,0,0,0,0,0,0,0,0,
0,0,0,0,0,0,0,0,0,0,0,0,0,0,0,0,0,0,0,0,0,0,0,0,0,0,0,
0,0,0,0,0,0,0,0,0,0,0,0,0,0,0,0,0,0,0,0,0,0,0,0,0,0,0,
0,0,0,0,0,0,0,0,0,0,0,0,0,0,0,0,0,0,0,0,0,0,0,0,0,0,0,
0,0,0,0,0,0,0,0,0,0,0,0,0,0,0,0,0,0,0,0,0,0,0,0,0,0,0,
0,0,0,0,0,0,0,0,0,0,0,0,0,0,0,0,0,0,0,0,0,0,0,0,0,0,0,
0,0,0,0,0,0,0,0,0,0,0,0,0,0,0,0,0,0,0,0,0,0,0,0,0,0,0,
0,0,0,0,0,0,0,0,0,0,0,0,0,0,0,0,0,0,0,0,0,0,0,0,0,0,0,
0,0,0,0,0,0,0,0,0,0,0,0,0,0,0,0,0,0,0,0,0,0,0,0,0,0,0,
0,0,0,0,0,0,0,0,0,0,0,0,0,0,0,0,0,0,0,0,0,0,0,0,0,0,0,
0,0,0,0,0,0,0,0,0,0,0,0,0,0,0,0,0,0,0,0,0,0,0,0,0,0,0,
0,0,0,0,0,0,0,0,0,0,0,0,0,0,0,0,0,0,0,0,0,0,0,0,0,0,0,
0,0,0,0,0,0,0,0,0,0,0,0,0,0,0,0,0,0,0,0,0,0,0,0,0,0,0,
0,0,0,0,0,0,0,0,0,0,0,0,0,0,0,0,0,0,0,0,0,0,0,0,0,0,0,
0,0,0,0,0,0,0,0,0,0,0,0,0,0,0,0,0,0,0,0,0,0,0,0,0,0,0,
0,0,0,0,0,0,0,0,0,0,0,0,0,0,0,0,0,0,0,0,0,0,0,0,0,0,0,
0,0,0,0,0,0,0,0,0,0,0,0,0,0,0,0,0,0,0,0,0,0,0,0,0,0,0,
0,0,0,0,0,0,0,0,0,0,0,0,0,0,0,0,0,0,0,0,0,0,0,0,0,0,0
</data>
 </layer>
 <layer id="9" name="Exterior Decoration L2" width="27" height="24">
  <data encoding="csv">
0,0,0,0,0,0,0,0,0,0,0,0,0,0,0,0,0,0,0,0,0,0,0,0,0,0,0,
0,0,0,0,0,0,0,0,0,0,0,0,0,0,0,0,0,0,0,0,0,0,0,0,0,0,0,
0,0,0,0,0,0,0,0,0,0,0,0,0,0,0,0,0,0,0,0,0,0,0,0,0,0,0,
0,0,0,0,0,0,0,0,0,0,0,0,0,0,0,0,0,0,0,0,0,0,0,0,0,0,0,
0,0,0,0,0,0,0,0,0,0,0,0,0,0,0,0,0,0,0,0,0,0,0,0,0,0,0,
0,0,0,0,0,0,0,0,0,0,0,0,0,0,0,0,0,0,0,0,0,0,0,0,0,0,0,
0,0,0,0,0,0,0,0,0,0,0,0,0,0,0,0,0,0,0,0,0,0,0,0,0,0,0,
0,0,0,0,0,0,0,0,0,0,0,0,0,0,0,0,0,0,0,0,0,0,0,0,0,0,0,
0,0,0,0,0,0,0,0,0,0,0,0,0,0,0,0,0,0,0,0,0,0,0,0,0,0,0,
0,0,0,0,0,0,0,0,0,0,0,0,0,0,0,0,0,0,0,0,0,0,0,0,0,0,0,
0,0,0,0,0,0,0,0,0,0,0,0,0,0,0,0,0,0,0,0,0,0,0,0,0,0,0,
0,0,0,0,0,0,0,0,0,0,0,0,0,0,0,0,0,0,0,0,0,0,0,0,0,0,0,
0,0,0,0,0,0,0,0,0,0,0,0,0,0,0,0,0,0,0,0,0,0,0,0,0,0,0,
0,0,0,0,0,0,0,0,0,0,0,0,0,0,0,0,0,0,0,0,0,0,0,0,0,0,0,
0,0,0,0,0,0,0,0,0,0,0,0,0,0,0,0,0,0,0,0,0,0,0,0,0,0,0,
0,0,0,0,0,0,0,0,0,0,0,0,0,0,0,0,0,0,0,0,0,0,0,0,0,0,0,
0,0,0,0,0,0,0,0,0,0,0,0,0,0,0,0,0,0,0,0,0,0,0,0,0,0,0,
0,0,0,0,0,0,0,0,0,0,0,0,0,0,0,0,0,0,0,0,0,0,0,0,0,0,0,
0,0,0,0,0,0,0,0,0,0,0,0,0,0,0,0,0,0,0,0,0,0,0,0,0,0,0,
0,0,0,0,0,0,0,0,0,0,0,0,0,0,0,0,0,0,0,0,0,0,0,0,0,0,0,
0,0,0,0,0,0,0,0,0,0,0,0,0,0,0,0,0,0,0,0,0,0,0,0,0,0,0,
0,0,0,0,0,0,0,0,0,0,0,0,0,0,0,0,0,0,0,0,0,0,0,0,0,0,0,
0,0,0,0,0,0,0,0,0,0,0,0,0,0,0,0,0,0,0,0,0,0,0,0,0,0,0,
0,0,0,0,0,0,0,0,0,0,0,0,0,0,0,0,0,0,0,0,0,0,0,0,0,0,0
</data>
 </layer>
 <layer id="5" name="Interior Ground" width="27" height="24">
  <data encoding="csv">
0,0,0,0,0,0,0,0,0,0,0,0,0,0,0,0,0,0,0,0,0,0,0,0,0,0,0,
0,0,0,0,0,0,0,0,0,0,0,0,0,0,0,0,0,0,0,0,0,0,0,0,0,0,0,
0,0,0,0,0,0,0,0,0,0,0,0,0,0,0,0,0,0,0,0,0,0,0,0,0,0,0,
0,0,0,0,0,0,0,0,0,0,0,0,0,0,0,0,0,0,0,0,0,0,0,0,0,0,0,
0,0,0,0,0,0,0,0,0,0,0,0,0,0,0,0,0,0,0,0,0,0,0,0,0,0,0,
0,0,0,0,0,0,0,0,0,0,0,0,0,0,0,0,0,0,0,0,0,0,0,0,0,0,0,
0,0,0,0,0,0,0,0,0,0,0,0,0,0,0,0,0,0,0,0,0,0,0,0,0,0,0,
0,0,0,0,0,0,0,0,0,0,0,0,0,0,0,0,0,0,0,0,0,0,0,0,0,0,0,
0,0,0,0,0,0,0,0,0,0,0,0,0,0,0,0,0,0,0,0,0,0,0,0,0,0,0,
0,0,0,0,0,0,0,0,0,0,0,0,0,0,0,0,0,0,0,0,0,0,0,0,0,0,0,
0,0,0,0,0,0,0,0,0,0,0,0,0,0,0,0,0,0,0,0,0,0,0,0,0,0,0,
0,0,0,0,0,0,0,0,0,0,0,0,0,0,0,0,0,0,0,0,0,0,0,0,0,0,0,
0,0,0,0,0,0,0,0,0,0,0,0,0,0,0,0,0,0,0,0,0,0,0,0,0,0,0,
0,0,0,0,0,0,0,0,0,0,0,0,0,0,0,0,0,0,0,0,0,0,0,0,0,0,0,
0,0,0,0,0,0,0,0,0,0,0,0,0,0,0,0,0,0,0,0,0,0,0,0,0,0,0,
0,0,0,0,0,0,0,0,0,0,0,0,0,0,0,0,0,0,0,0,0,0,0,0,0,0,0,
0,0,0,0,0,0,0,0,0,0,0,0,0,0,0,0,0,0,0,0,0,0,0,0,0,0,0,
0,0,0,0,0,0,0,0,0,0,0,0,0,0,0,0,0,0,0,0,0,0,0,0,0,0,0,
0,0,0,0,0,0,0,0,0,0,0,0,0,0,0,0,0,0,0,0,0,0,0,0,0,0,0,
0,0,0,0,0,0,0,0,0,0,0,0,0,0,0,0,0,0,0,0,0,0,0,0,0,0,0,
0,0,0,0,0,0,0,0,0,0,0,0,0,0,0,0,0,0,0,0,0,0,0,0,0,0,0,
0,0,0,0,0,0,0,0,0,0,0,0,0,0,0,0,0,0,0,0,0,0,0,0,0,0,0,
0,0,0,0,0,0,0,0,0,0,0,0,0,0,0,0,0,0,0,0,0,0,0,0,0,0,0,
0,0,0,0,0,0,0,0,0,0,0,0,0,0,0,0,0,0,0,0,0,0,0,0,0,0,0
</data>
 </layer>
 <layer id="3" name="Wall" width="27" height="24">
  <data encoding="csv">
0,0,0,0,0,0,0,0,0,0,0,0,0,0,0,0,0,0,0,0,0,0,0,0,0,0,0,
0,0,0,0,0,0,0,0,0,0,0,0,0,0,0,0,0,0,0,0,0,0,0,0,0,0,0,
0,0,5459,5612,5612,5612,5612,5612,5612,5612,5612,5612,5612,5612,5612,5612,5612,5612,5612,0,0,0,0,0,0,0,0,
0,0,5838,0,0,0,0,0,0,0,0,0,0,0,0,0,0,0,0,0,0,0,0,0,0,0,0,
0,0,5838,0,0,0,0,0,0,0,0,0,0,0,0,0,0,0,0,0,0,0,0,0,0,0,0,
0,0,5838,0,0,0,0,0,0,0,0,0,0,0,0,0,0,0,0,0,0,0,0,0,0,0,0,
0,0,5838,0,0,0,0,0,0,0,0,0,0,0,0,0,0,0,0,0,0,0,0,0,0,0,0,
0,0,5838,0,0,0,0,0,0,0,0,0,0,0,0,0,0,0,0,0,0,0,0,0,0,0,0,
0,0,5838,0,0,0,0,0,0,0,0,0,0,0,0,0,0,0,0,0,0,0,0,0,0,0,0,
0,0,5838,0,0,0,0,0,0,0,0,0,0,0,0,0,0,0,0,0,0,0,0,0,0,0,0,
0,0,5534,0,0,0,0,0,0,0,0,0,0,0,0,0,0,0,0,0,0,0,0,0,0,0,0,
0,0,5838,0,0,0,0,0,0,0,0,0,0,0,0,0,0,0,0,0,0,0,0,0,0,0,0,
0,0,5838,0,0,0,0,0,0,0,0,0,0,0,0,0,0,0,0,0,0,0,0,0,0,0,0,
0,0,5838,0,0,0,0,0,0,0,0,0,0,0,0,0,0,0,0,0,0,0,0,0,0,0,0,
0,0,5838,0,0,0,0,0,0,0,0,0,0,0,0,0,0,0,0,0,0,0,0,0,0,0,0,
0,0,0,0,0,0,0,0,0,0,0,0,0,0,0,0,0,0,0,0,0,0,0,0,0,0,0,
0,0,0,0,0,0,0,0,0,0,0,0,0,0,0,0,0,0,0,0,0,0,0,0,0,0,0,
0,0,0,0,0,0,0,0,0,0,0,0,0,0,0,0,0,0,0,0,0,0,0,0,0,0,0,
0,0,0,0,0,0,0,0,0,0,0,0,0,0,0,0,0,0,0,0,0,0,0,0,0,0,0,
0,0,0,0,0,0,0,0,0,0,0,0,0,0,0,0,0,0,0,0,0,0,0,0,0,0,0,
0,0,0,0,0,0,0,0,0,0,0,0,0,0,0,0,0,0,0,0,0,0,0,0,0,0,0,
0,0,0,0,0,0,0,0,0,0,0,0,0,0,0,0,0,0,0,0,0,0,0,0,0,0,0,
0,0,0,0,0,0,0,0,0,0,0,0,0,0,0,0,0,0,0,0,0,0,0,0,0,0,0,
0,0,0,0,0,0,0,0,0,0,0,0,0,0,0,0,0,0,0,0,0,0,0,0,0,0,0
</data>
 </layer>
 <layer id="10" name="Interior Furniture L1" width="27" height="24">
  <data encoding="csv">
0,0,0,0,0,0,0,0,0,0,0,0,0,0,0,0,0,0,0,0,0,0,0,0,0,0,0,
0,0,0,0,0,0,0,0,0,0,0,0,0,0,0,0,0,0,0,0,0,0,0,0,0,0,0,
0,0,0,0,0,0,0,0,0,0,0,0,0,0,0,0,0,0,0,0,0,0,0,0,0,0,0,
0,0,0,0,0,0,0,0,0,0,0,0,0,0,0,0,0,0,0,0,0,0,0,0,0,0,0,
0,0,0,0,0,0,0,0,0,0,0,0,0,0,0,0,0,0,0,0,0,0,0,0,0,0,0,
0,0,0,0,0,0,0,0,0,0,0,0,0,0,0,0,0,0,0,0,0,0,0,0,0,0,0,
0,0,0,0,0,0,0,0,0,0,0,0,0,0,0,0,0,0,0,0,0,0,0,0,0,0,0,
0,0,0,0,0,0,0,0,0,0,0,0,0,0,0,0,0,0,0,0,0,0,0,0,0,0,0,
0,0,0,0,0,0,0,0,0,0,0,0,0,0,0,0,0,0,0,0,0,0,0,0,0,0,0,
0,0,0,0,0,0,0,0,0,0,0,0,0,0,0,0,0,0,0,0,0,0,0,0,0,0,0,
0,0,0,0,0,0,0,0,0,0,0,0,0,0,0,0,0,0,0,0,0,0,0,0,0,0,0,
0,0,0,0,0,0,0,0,0,0,0,0,0,0,0,0,0,0,0,0,0,0,0,0,0,0,0,
0,0,0,0,0,0,0,0,0,0,0,0,0,0,0,0,0,0,0,0,0,0,0,0,0,0,0,
0,0,0,0,0,0,0,0,0,0,0,0,0,0,0,0,0,0,0,0,0,0,0,0,0,0,0,
0,0,0,0,0,0,0,0,0,0,0,0,0,0,0,0,0,0,0,0,0,0,0,0,0,0,0,
0,0,0,0,0,0,0,0,0,0,0,0,0,0,0,0,0,0,0,0,0,0,0,0,0,0,0,
0,0,0,0,0,0,0,0,0,0,0,0,0,0,0,0,0,0,0,0,0,0,0,0,0,0,0,
0,0,0,0,0,0,0,0,0,0,0,0,0,0,0,0,0,0,0,0,0,0,0,0,0,0,0,
0,0,0,0,0,0,0,0,0,0,0,0,0,0,0,0,0,0,0,0,0,0,0,0,0,0,0,
0,0,0,0,0,0,0,0,0,0,0,0,0,0,0,0,0,0,0,0,0,0,0,0,0,0,0,
0,0,0,0,0,0,0,0,0,0,0,0,0,0,0,0,0,0,0,0,0,0,0,0,0,0,0,
0,0,0,0,0,0,0,0,0,0,0,0,0,0,0,0,0,0,0,0,0,0,0,0,0,0,0,
0,0,0,0,0,0,0,0,0,0,0,0,0,0,0,0,0,0,0,0,0,0,0,0,0,0,0,
0,0,0,0,0,0,0,0,0,0,0,0,0,0,0,0,0,0,0,0,0,0,0,0,0,0,0
</data>
 </layer>
 <layer id="11" name="Interior Furniture L2 " width="27" height="24" locked="1">
  <data encoding="csv">
0,0,0,0,0,0,0,0,0,0,0,0,0,0,0,0,0,0,0,0,0,0,0,0,0,0,0,
0,0,0,0,0,0,0,0,0,0,0,0,0,0,0,0,0,0,0,0,0,0,0,0,0,0,0,
0,0,0,0,0,0,0,0,0,0,0,0,0,0,0,0,0,0,0,0,0,0,0,0,0,0,0,
0,0,0,0,0,0,0,0,0,0,0,0,0,0,0,0,0,0,0,0,0,0,0,0,0,0,0,
0,0,0,0,0,0,0,0,0,0,0,0,0,0,0,0,0,0,0,0,0,0,0,0,0,0,0,
0,0,0,0,0,0,0,0,0,0,0,0,0,0,0,0,0,0,0,0,0,0,0,0,0,0,0,
0,0,0,0,0,0,0,0,0,0,0,0,0,0,0,0,0,0,0,0,0,0,0,0,0,0,0,
0,0,0,0,0,0,15910,0,0,0,0,0,0,0,0,0,0,0,0,0,0,0,0,0,0,0,0,
0,0,0,0,0,0,15926,0,0,0,0,0,0,0,0,0,0,0,0,0,0,0,0,0,0,0,0,
0,0,0,0,0,0,0,0,0,0,0,0,0,0,0,0,0,0,0,0,0,0,0,0,0,0,0,
0,0,0,0,0,0,0,0,0,0,0,0,0,0,0,0,0,0,0,0,0,0,0,0,0,0,0,
0,0,0,0,0,0,0,0,0,0,0,0,0,0,0,0,0,0,0,0,0,0,0,0,0,0,0,
0,0,0,0,0,0,0,0,0,0,0,0,0,0,0,0,0,0,0,0,0,0,0,0,0,0,0,
0,0,0,0,0,0,0,0,0,0,0,0,0,0,0,0,0,0,0,0,0,0,0,0,0,0,0,
0,0,0,0,0,0,0,0,0,0,0,0,0,0,0,0,0,0,0,0,0,0,0,0,0,0,0,
0,0,0,0,0,0,0,0,0,0,0,0,0,0,0,0,0,0,0,0,0,0,0,0,0,0,0,
0,0,0,0,0,0,0,0,0,0,0,0,0,0,0,0,0,0,0,0,0,0,0,0,0,0,0,
0,0,0,0,0,0,0,0,0,0,0,0,0,0,0,0,0,0,0,0,0,0,0,0,0,0,0,
0,0,0,0,0,0,0,0,0,0,0,0,0,0,0,0,0,0,0,0,0,0,0,0,0,0,0,
0,0,0,0,0,0,0,0,0,0,0,0,0,0,0,0,0,0,0,0,0,0,0,0,0,0,0,
0,0,0,0,0,0,0,0,0,0,0,0,0,0,0,0,0,0,0,0,0,0,0,0,0,0,0,
0,0,0,0,0,0,0,0,0,0,0,0,0,0,0,0,0,0,0,0,0,0,0,0,0,0,0,
0,0,0,0,0,0,0,0,0,0,0,0,0,0,0,0,0,0,0,0,0,0,0,0,0,0,0,
0,0,0,0,0,0,0,0,0,0,0,0,0,0,0,0,0,0,0,0,0,0,0,0,0,0,0
</data>
 </layer>
 <layer id="19" name="Foreground L1" width="27" height="24">
  <data encoding="csv">
0,0,0,0,0,0,0,0,0,0,0,0,0,0,0,0,0,0,0,0,0,0,0,0,0,0,0,
0,0,0,0,0,0,0,0,0,0,0,0,0,0,0,0,0,0,0,0,0,0,0,0,0,0,0,
0,0,0,0,0,0,0,0,0,0,0,0,0,0,0,0,0,0,0,0,0,0,0,0,0,0,0,
0,0,0,0,0,0,0,0,0,0,0,0,0,0,0,0,0,0,0,0,0,0,0,0,0,0,0,
0,0,0,0,0,0,0,0,0,0,0,0,0,0,0,0,0,0,0,0,0,0,0,0,0,0,0,
0,0,0,0,0,0,0,0,0,0,0,0,0,0,0,0,0,0,0,0,0,0,0,0,0,0,0,
0,0,0,0,0,0,0,0,0,0,0,0,0,0,0,0,0,0,0,0,0,0,0,0,0,0,0,
0,0,0,0,0,0,0,0,0,0,0,0,0,0,0,0,0,0,0,0,0,0,0,0,0,0,0,
0,0,0,0,0,0,0,0,0,0,0,0,0,0,0,0,0,0,0,0,0,0,0,0,0,0,0,
0,0,0,0,0,0,0,0,0,0,0,0,0,0,0,0,0,0,0,0,0,0,0,0,0,0,0,
0,0,0,0,0,0,0,0,0,0,0,0,0,0,0,0,0,0,0,0,0,0,0,0,0,0,0,
0,0,0,0,0,0,0,0,0,0,0,0,0,0,0,0,0,0,0,0,0,0,0,0,0,0,0,
0,0,0,0,0,0,0,0,0,0,0,0,0,0,0,0,0,0,0,0,0,0,0,0,0,0,0,
0,0,0,0,0,0,0,0,0,0,0,0,0,0,0,0,0,0,0,0,0,0,0,0,0,0,0,
0,0,0,0,0,0,0,0,0,0,0,0,0,0,0,0,0,0,0,0,0,0,0,0,0,0,0,
0,0,0,0,0,0,0,0,0,0,0,0,0,0,0,0,0,0,0,0,0,0,0,0,0,0,0,
0,0,0,0,0,0,0,0,0,0,0,0,0,0,0,0,0,0,0,0,0,0,0,0,0,0,0,
0,0,0,0,0,0,0,0,0,0,0,0,0,0,0,0,0,0,0,0,0,0,0,0,0,0,0,
0,0,0,0,0,0,0,0,0,0,0,0,0,0,0,0,0,0,0,0,0,0,0,0,0,0,0,
0,0,0,0,0,0,0,0,0,0,0,0,0,0,0,0,0,0,0,0,0,0,0,0,0,0,0,
0,0,0,0,0,0,0,0,0,0,0,0,0,0,0,0,0,0,0,0,0,0,0,0,0,0,0,
0,0,0,0,0,0,0,0,0,0,0,0,0,0,0,0,0,0,0,0,0,0,0,0,0,0,0,
0,0,0,0,0,0,0,0,0,0,0,0,0,0,0,0,0,0,0,0,0,0,0,0,0,0,0,
0,0,0,0,0,0,0,0,0,0,0,0,0,0,0,0,0,0,0,0,0,0,0,0,0,0,0
</data>
 </layer>
 <layer id="20" name="Foreground L2" width="27" height="24">
  <data encoding="csv">
0,0,0,0,0,0,0,0,0,0,0,0,0,0,0,0,0,0,0,0,0,0,0,0,0,0,0,
0,0,0,0,0,0,0,0,0,0,0,0,0,0,0,0,0,0,0,0,0,0,0,0,0,0,0,
0,0,0,0,0,0,0,0,0,0,0,0,0,0,0,0,0,0,0,0,0,0,0,0,0,0,0,
0,0,0,0,0,0,0,0,0,0,0,0,0,0,0,0,0,0,0,0,0,0,0,0,0,0,0,
0,0,0,0,0,0,0,0,0,0,0,0,0,0,0,0,0,0,0,0,0,0,0,0,0,0,0,
0,0,0,0,0,0,0,0,0,0,0,0,0,0,0,0,0,0,0,0,0,0,0,0,0,0,0,
0,0,0,0,0,0,0,0,0,0,0,0,0,0,0,0,0,0,0,0,0,0,0,0,0,0,0,
0,0,0,0,0,0,0,0,0,0,0,0,0,0,0,0,0,0,0,0,0,0,0,0,0,0,0,
0,0,0,0,0,0,0,0,0,0,0,0,0,0,0,0,0,0,0,0,0,0,0,0,0,0,0,
0,0,0,0,0,0,0,0,0,0,0,0,0,0,0,0,0,0,0,0,0,0,0,0,0,0,0,
0,0,0,0,0,0,0,0,0,0,0,0,0,0,0,0,0,0,0,0,0,0,0,0,0,0,0,
0,0,0,0,0,0,0,0,0,0,0,0,0,0,0,0,0,0,0,0,0,0,0,0,0,0,0,
0,0,0,0,0,0,0,0,0,0,0,0,0,0,0,0,0,0,0,0,0,0,0,0,0,0,0,
0,0,0,0,0,0,0,0,0,0,0,0,0,0,0,0,0,0,0,0,0,0,0,0,0,0,0,
0,0,0,0,0,0,0,0,0,0,0,0,0,0,0,0,0,0,0,0,0,0,0,0,0,0,0,
0,0,0,0,0,0,0,0,0,0,0,0,0,0,0,0,0,0,0,0,0,0,0,0,0,0,0,
0,0,0,0,0,0,0,0,0,0,0,0,0,0,0,0,0,0,0,0,0,0,0,0,0,0,0,
0,0,0,0,0,0,0,0,0,0,0,0,0,0,0,0,0,0,0,0,0,0,0,0,0,0,0,
0,0,0,0,0,0,0,0,0,0,0,0,0,0,0,0,0,0,0,0,0,0,0,0,0,0,0,
0,0,0,0,0,0,0,0,0,0,0,0,0,0,0,0,0,0,0,0,0,0,0,0,0,0,0,
0,0,0,0,0,0,0,0,0,0,0,0,0,0,0,0,0,0,0,0,0,0,0,0,0,0,0,
0,0,0,0,0,0,0,0,0,0,0,0,0,0,0,0,0,0,0,0,0,0,0,0,0,0,0,
0,0,0,0,0,0,0,0,0,0,0,0,0,0,0,0,0,0,0,0,0,0,0,0,0,0,0,
0,0,0,0,0,0,0,0,0,0,0,0,0,0,0,0,0,0,0,0,0,0,0,0,0,0,0
</data>
 </layer>
 <layer id="12" name="Collisions" width="27" height="24" opacity="0.4">
  <data encoding="csv">
0,0,0,0,0,0,0,0,0,0,0,0,0,0,0,0,0,0,0,0,0,0,0,0,0,0,0,
0,0,0,0,0,0,0,0,0,0,0,0,0,0,0,0,0,0,0,0,0,0,0,0,0,0,0,
0,0,0,0,0,0,0,0,0,0,0,0,0,0,0,0,0,0,0,0,0,0,0,0,0,0,0,
0,0,0,0,0,0,0,0,0,0,0,0,0,0,0,0,0,0,0,0,0,0,0,0,0,0,0,
0,0,0,0,0,0,0,0,0,0,0,0,0,0,0,0,0,0,0,0,0,0,0,0,0,0,0,
0,0,0,0,0,0,0,0,0,0,0,0,0,0,0,0,0,0,0,0,0,0,0,0,0,0,0,
0,0,0,0,0,0,0,0,0,0,0,0,0,0,0,0,0,0,0,0,0,0,0,0,0,0,0,
0,0,0,0,0,0,0,0,0,0,0,0,0,0,0,0,0,0,0,0,0,0,0,0,0,0,0,
0,0,0,0,0,0,0,0,0,0,0,0,0,0,0,0,0,0,0,0,0,0,0,0,0,0,0,
0,0,0,0,0,0,0,0,0,0,0,0,0,0,0,0,0,0,0,0,0,0,0,0,0,0,0,
0,0,0,0,0,0,0,0,0,0,0,0,0,0,0,0,0,0,0,0,0,0,0,0,0,0,0,
0,0,0,0,0,0,0,0,0,0,0,0,0,0,0,0,0,0,0,0,0,0,0,0,0,0,0,
0,0,0,0,0,0,0,0,0,0,0,0,0,0,0,0,0,0,0,0,0,0,0,0,0,0,0,
0,0,0,0,0,0,0,0,0,0,0,0,0,0,0,0,0,0,0,0,0,0,0,0,0,0,0,
0,0,0,0,0,0,0,0,0,0,0,0,0,0,0,0,0,0,0,0,0,0,0,0,0,0,0,
0,0,0,0,0,0,0,0,0,0,0,0,0,0,0,0,0,0,0,0,0,0,0,0,0,0,0,
0,0,0,0,0,0,0,0,0,0,0,0,0,0,0,0,0,0,0,0,0,0,0,0,0,0,0,
0,0,0,0,0,0,0,0,0,0,0,0,0,0,0,0,0,0,0,0,0,0,0,0,0,0,0,
0,0,0,0,0,0,0,0,0,0,0,0,0,0,0,0,0,0,0,0,0,0,0,0,0,0,0,
0,0,0,0,0,0,0,0,0,0,0,0,0,0,0,0,0,0,0,0,0,0,0,0,0,0,0,
0,0,0,0,0,0,0,0,0,0,0,0,0,0,0,0,0,0,0,0,0,0,0,0,0,0,0,
0,0,0,0,0,0,0,0,0,0,0,0,0,0,0,0,0,0,0,0,0,0,0,0,0,0,0,
0,0,0,0,0,0,0,0,0,0,0,0,0,0,0,0,0,0,0,0,0,0,0,0,0,0,0,
0,0,0,0,0,0,0,0,0,0,0,0,0,0,0,0,0,0,0,0,0,0,0,0,0,0,0
</data>
 </layer>
 <layer id="14" name="Object Interaction Blocks" width="27" height="24">
  <data encoding="csv">
0,0,0,0,0,0,0,0,0,0,0,0,0,0,0,0,0,0,0,0,0,0,0,0,0,0,0,
0,0,0,0,0,0,0,0,0,0,0,0,0,0,0,0,0,0,0,0,0,0,0,0,0,0,0,
0,0,0,0,0,0,0,0,0,0,0,0,0,0,0,0,0,0,0,0,0,0,0,0,0,0,0,
0,0,0,0,0,0,0,0,0,0,0,0,0,0,0,0,0,0,0,0,0,0,0,0,0,0,0,
0,0,0,0,0,0,0,0,0,0,0,0,0,0,0,0,0,0,0,0,0,0,0,0,0,0,0,
0,0,0,0,0,32279,32279,32279,0,0,0,0,0,0,0,0,0,0,32250,32250,32250,32250,0,0,0,0,0,
0,0,0,0,0,0,0,0,0,0,0,0,0,0,0,0,0,0,0,0,0,0,0,0,0,0,0,
0,0,0,0,0,0,0,0,0,0,0,0,0,0,0,0,32260,0,0,32260,0,0,0,0,0,0,0,
0,0,0,0,0,32280,0,0,0,0,0,0,0,0,0,0,0,0,0,0,0,0,0,0,0,0,0,
0,0,0,0,0,0,0,0,0,0,0,0,0,0,0,0,32260,0,0,32260,0,0,0,0,0,0,0,
0,0,0,0,0,0,0,0,0,32270,0,0,0,0,0,0,0,0,0,0,32250,0,0,0,0,0,0,
0,0,0,0,0,0,0,0,0,0,0,0,0,0,0,0,0,0,0,0,32250,0,0,0,0,0,0,
0,0,0,0,0,0,0,0,0,0,0,0,0,0,0,0,0,0,0,0,32250,0,0,0,0,0,0,
0,0,0,0,0,0,0,0,0,0,0,0,0,0,0,0,0,0,0,0,0,0,0,0,0,0,0,
0,0,0,0,0,0,0,0,0,0,0,0,0,0,0,0,0,0,0,0,0,0,0,0,0,0,0,
0,0,0,0,0,0,0,0,0,0,0,0,0,0,0,0,0,0,0,0,0,0,0,0,0,0,0,
0,0,0,0,0,0,0,0,0,0,0,0,0,0,0,0,0,0,0,0,0,0,0,0,0,0,32222,
0,0,0,0,0,0,0,0,0,0,0,0,0,0,0,0,0,0,0,0,0,0,0,0,0,32222,0,
0,0,0,0,0,0,0,0,0,0,0,0,0,0,0,0,0,0,0,0,0,0,0,0,0,32222,0,
0,0,0,0,0,0,0,0,0,0,0,0,0,0,0,0,0,0,0,0,0,0,0,0,0,32222,0,
0,0,0,0,0,0,0,0,0,0,0,0,0,0,0,0,0,0,0,0,0,0,0,0,0,32222,0,
0,0,0,0,0,0,0,0,0,0,0,0,0,0,0,0,0,0,0,0,0,0,0,0,0,32222,0,
0,0,0,0,0,0,0,0,0,0,0,0,0,0,0,32222,32222,32222,32222,32222,32222,32222,32222,32222,32222,32222,32222,
0,0,0,0,0,0,0,0,0,0,0,0,0,0,0,32222,0,0,0,0,0,0,0,0,0,0,32222
</data>
 </layer>
 <layer id="13" name="Arena Blocks" width="27" height="24" visible="0">
  <data encoding="csv">
0,0,0,0,0,0,0,0,0,0,0,0,0,0,0,0,0,0,0,0,0,0,0,0,0,0,0,
0,0,0,0,0,0,0,0,0,0,0,0,0,0,0,0,0,0,0,0,0,0,0,0,0,0,0,
0,0,0,0,0,0,0,0,0,0,0,0,0,0,0,0,0,0,0,0,0,0,0,0,0,0,0,
0,0,0,0,0,0,0,0,0,0,0,0,0,0,0,0,0,0,0,0,0,0,0,0,0,0,0,
0,0,0,0,0,32181,32181,32181,32181,32181,32181,32181,32181,0,0,32191,32191,32191,32191,32191,32191,32191,0,0,0,0,0,
0,0,0,0,0,32181,32181,32181,32181,32181,32181,32181,32181,0,0,32191,32191,32191,32191,32191,32191,32191,0,0,0,0,0,
0,0,0,0,0,32181,32181,32181,32181,32181,32181,32181,32181,0,0,32191,32191,32191,32191,32191,32191,32191,0,0,0,0,0,
0,0,0,0,0,32181,32181,32181,32181,32181,32181,32181,32181,0,0,32191,32191,32191,32191,32191,32191,32191,0,0,0,0,0,
0,0,0,0,0,32181,32181,32181,32181,32181,32181,32181,32181,0,0,32191,32191,32191,32191,32191,32191,32191,0,0,0,0,0,
0,0,0,0,0,32181,32181,32181,32181,32181,32181,32181,32181,0,0,32191,32191,32191,32191,32191,32191,32191,0,0,0,0,0,
0,0,0,0,0,32181,32181,32181,32181,32181,32181,32181,32181,0,0,32191,32191,32191,32191,32191,32191,32191,0,0,0,0,0,
0,0,0,0,0,32181,32181,32181,32181,32181,32181,32181,32181,0,0,32191,32191,32191,32191,32191,32191,32191,0,0,0,0,0,
0,0,0,0,0,32181,32181,32181,32181,32181,32181,32181,32181,0,0,32191,32191,32191,32191,32191,32191,32191,0,0,0,0,0,
0,0,0,0,0,0,0,0,0,0,32181,32181,0,0,0,0,32191,32191,0,0,0,0,0,0,0,0,0,
0,0,0,0,0,0,0,0,0,0,32181,32181,0,0,0,0,32191,32191,0,0,0,0,0,0,0,0,0,
0,0,0,0,0,32201,32201,32201,32201,32201,32201,32201,32201,32201,32201,32201,32201,32201,32201,32201,32201,32201,0,0,0,0,0,
0,0,0,0,0,0,0,0,32201,32201,32201,32201,32201,32201,32201,32201,32201,32201,32201,32201,32201,32201,0,0,0,32183,32183,
0,0,0,0,0,0,0,0,32201,32201,32201,32201,32201,32201,32201,32201,32201,32201,32201,32201,32201,32201,0,0,0,32183,32183,
0,0,0,0,0,0,0,0,32201,32201,32201,32201,32201,32201,32201,32201,32201,32201,32201,32201,32201,32201,0,0,0,32183,32183,
0,0,0,0,0,0,0,0,32201,32201,32201,32201,32201,32201,32201,32201,32201,32201,32201,32201,32201,32201,0,0,0,32183,32183,
0,0,0,0,0,0,0,0,0,0,0,0,0,0,0,0,0,0,0,0,0,0,0,0,0,32183,32183,
0,0,0,0,0,0,0,0,0,0,0,0,0,0,0,0,0,0,0,0,0,0,0,0,32183,32183,32183,
0,0,0,0,0,0,0,0,0,0,0,0,0,0,32183,32183,32183,32183,32183,32183,32183,32183,32183,32183,32183,32183,32183,
0,0,0,0,0,0,0,0,0,0,0,0,0,0,32183,32183,32183,32183,32183,32183,32183,32183,32183,32183,32183,32183,32183
</data>
 </layer>
 <layer id="16" name="Sector Blocks" width="27" height="24" visible="0">
  <data encoding="csv">
0,0,0,0,0,0,0,0,0,0,0,0,0,0,0,0,0,0,0,0,0,0,0,0,0,0,0,
0,0,0,0,0,0,0,0,0,0,0,0,0,0,0,0,0,0,0,0,0,0,0,0,0,0,0,
0,0,0,0,0,0,0,0,0,0,0,0,0,0,0,0,0,0,0,0,0,0,0,0,0,0,0,
0,0,0,0,0,0,0,0,0,0,0,0,0,0,0,0,0,0,0,0,0,0,0,0,0,0,0,
0,0,0,0,32146,32146,32146,32146,32146,32146,32146,32146,32146,32146,32146,32146,32146,32146,32146,32146,32146,32146,32146,0,0,0,0,
0,0,0,0,32146,32146,32146,32146,32146,32146,32146,32146,32146,32146,32146,32146,32146,32146,32146,32146,32146,32146,32146,0,0,0,0,
0,0,0,0,32146,32146,32146,32146,32146,32146,32146,32146,32146,32146,32146,32146,32146,32146,32146,32146,32146,32146,32146,0,0,0,0,
0,0,0,0,32146,32146,32146,32146,32146,32146,32146,32146,32146,32146,32146,32146,32146,32146,32146,32146,32146,32146,32146,0,0,0,0,
0,0,0,0,32146,32146,32146,32146,32146,32146,32146,32146,32146,32146,32146,32146,32146,32146,32146,32146,32146,32146,32146,0,0,0,0,
0,0,0,0,32146,32146,32146,32146,32146,32146,32146,32146,32146,32146,32146,32146,32146,32146,32146,32146,32146,32146,32146,0,0,0,0,
0,0,0,0,32146,32146,32146,32146,32146,32146,32146,32146,32146,32146,32146,32146,32146,32146,32146,32146,32146,32146,32146,0,0,0,0,
0,0,0,0,32146,32146,32146,32146,32146,32146,32146,32146,32146,32146,32146,32146,32146,32146,32146,32146,32146,32146,32146,0,0,0,0,
0,0,0,0,32146,32146,32146,32146,32146,32146,32146,32146,32146,32146,32146,32146,32146,32146,32146,32146,32146,32146,32146,0,0,0,0,
0,0,0,0,32146,32146,32146,32146,32146,32146,32146,32146,32146,32146,32146,32146,32146,32146,32146,32146,32146,32146,32146,0,0,0,0,
0,0,0,0,32146,32146,32146,32146,32146,32146,32146,32146,32146,32146,32146,32146,32146,32146,32146,32146,32146,32146,32146,0,0,0,0,
0,0,0,0,32146,32146,32146,32146,32146,32146,32146,32146,32146,32146,32146,32146,32146,32146,32146,32146,32146,32146,32146,0,0,0,0,
0,0,0,0,0,0,0,0,32146,32146,32146,32146,32146,32146,32146,32146,32146,32146,32146,32146,32146,32146,32146,0,0,32177,32177,
0,0,0,0,0,0,0,0,32146,32146,32146,32146,32146,32146,32146,32146,32146,32146,32146,32146,32146,32146,32146,0,0,32177,32177,
0,0,0,0,0,0,0,0,32146,32146,32146,32146,32146,32146,32146,32146,32146,32146,32146,32146,32146,32146,32146,0,0,32177,32177,
0,0,0,0,0,0,0,0,32146,32146,32146,32146,32146,32146,32146,32146,32146,32146,32146,32146,32146,32146,32146,0,0,32177,32177,
0,0,0,0,0,0,0,0,0,0,0,0,0,0,0,0,0,0,0,0,0,0,0,0,0,32177,32177,
0,0,0,0,0,0,0,0,0,0,0,0,0,0,0,0,0,0,0,0,0,0,0,0,32177,32177,32177,
0,0,0,0,0,0,0,0,0,0,0,0,0,0,32177,32177,32177,32177,32177,32177,32177,32177,32177,32177,32177,32177,32177,
0,0,0,0,0,0,0,0,0,0,0,0,0,0,32177,32177,32177,32177,32177,32177,32177,32177,32177,32177,32177,32177,32177
</data>
 </layer>
 <layer id="17" name="World Blocks" width="27" height="24" visible="0">
  <data encoding="csv">
32134,32134,32134,32134,32134,32134,32134,32134,32134,32134,32134,32134,32134,32134,32134,32134,32134,32134,32134,32134,32134,32134,32134,32134,32134,32134,32134,
32134,32134,32134,32134,32134,32134,32134,32134,32134,32134,32134,32134,32134,32134,32134,32134,32134,32134,32134,32134,32134,32134,32134,32134,32134,32134,32134,
32134,32134,32134,32134,32134,32134,32134,32134,32134,32134,32134,32134,32134,32134,32134,32134,32134,32134,32134,32134,32134,32134,32134,32134,32134,32134,32134,
32134,32134,32134,32134,32134,32134,32134,32134,32134,32134,32134,32134,32134,32134,32134,32134,32134,32134,32134,32134,32134,32134,32134,32134,32134,32134,32134,
32134,32134,32134,32134,32134,32134,32134,32134,32134,32134,32134,32134,32134,32134,32134,32134,32134,32134,32134,32134,32134,32134,32134,32134,32134,32134,32134,
32134,32134,32134,32134,32134,32134,32134,32134,32134,32134,32134,32134,32134,32134,32134,32134,32134,32134,32134,32134,32134,32134,32134,32134,32134,32134,32134,
32134,32134,32134,32134,32134,32134,32134,32134,32134,32134,32134,32134,32134,32134,32134,32134,32134,32134,32134,32134,32134,32134,32134,32134,32134,32134,32134,
32134,32134,32134,32134,32134,32134,32134,32134,32134,32134,32134,32134,32134,32134,32134,32134,32134,32134,32134,32134,32134,32134,32134,32134,32134,32134,32134,
32134,32134,32134,32134,32134,32134,32134,32134,32134,32134,32134,32134,32134,32134,32134,32134,32134,32134,32134,32134,32134,32134,32134,32134,32134,32134,32134,
32134,32134,32134,32134,32134,32134,32134,32134,32134,32134,32134,32134,32134,32134,32134,32134,32134,32134,32134,32134,32134,32134,32134,32134,32134,32134,32134,
32134,32134,32134,32134,32134,32134,32134,32134,32134,32134,32134,32134,32134,32134,32134,32134,32134,32134,32134,32134,32134,32134,32134,32134,32134,32134,32134,
32134,32134,32134,32134,32134,32134,32134,32134,32134,32134,32134,32134,32134,32134,32134,32134,32134,32134,32134,32134,32134,32134,32134,32134,32134,32134,32134,
32134,32134,32134,32134,32134,32134,32134,32134,32134,32134,32134,32134,32134,32134,32134,32134,32134,32134,32134,32134,32134,32134,32134,32134,32134,32134,32134,
32134,32134,32134,32134,32134,32134,32134,32134,32134,32134,32134,32134,32134,32134,32134,32134,32134,32134,32134,32134,32134,32134,32134,32134,32134,32134,32134,
32134,32134,32134,32134,32134,32134,32134,32134,32134,32134,32134,32134,32134,32134,32134,32134,32134,32134,32134,32134,32134,32134,32134,32134,32134,32134,32134,
32134,32134,32134,32134,32134,32134,32134,32134,32134,32134,32134,32134,32134,32134,32134,32134,32134,32134,32134,32134,32134,32134,32134,32134,32134,32134,32134,
32134,32134,32134,32134,32134,32134,32134,32134,32134,32134,32134,32134,32134,32134,32134,32134,32134,32134,32134,32134,32134,32134,32134,32134,32134,32134,32134,
32134,32134,32134,32134,32134,32134,32134,32134,32134,32134,32134,32134,32134,32134,32134,32134,32134,32134,32134,32134,32134,32134,32134,32134,32134,32134,32134,
32134,32134,32134,32134,32134,32134,32134,32134,32134,32134,32134,32134,32134,32134,32134,32134,32134,32134,32134,32134,32134,32134,32134,32134,32134,32134,32134,
32134,32134,32134,32134,32134,32134,32134,32134,32134,32134,32134,32134,32134,32134,32134,32134,32134,32134,32134,32134,32134,32134,32134,32134,32134,32134,32134,
32134,32134,32134,32134,32134,32134,32134,32134,32134,32134,32134,32134,32134,32134,32134,32134,32134,32134,32134,32134,32134,32134,32134,32134,32134,32134,32134,
32134,32134,32134,32134,32134,32134,32134,32134,32134,32134,32134,32134,32134,32134,32134,32134,32134,32134,32134,32134,32134,32134,32134,32134,32134,32134,32134,
32134,32134,32134,32134,32134,32134,32134,32134,32134,32134,32134,32134,32134,32134,32134,32134,32134,32134,32134,32134,32134,32134,32134,32134,32134,32134,32134,
32134,32134,32134,32134,32134,32134,32134,32134,32134,32134,32134,32134,32134,32134,32134,32134,32134,32134,32134,32134,32134,32134,32134,32134,32134,32134,32134
</data>
 </layer>
 <layer id="15" name="Spawning Blocks" width="27" height="24" visible="0" opacity="0.68">
  <data encoding="csv">
0,0,0,0,0,0,0,0,0,0,0,0,0,0,0,0,0,0,0,0,0,0,0,0,0,0,0,
0,0,0,0,0,0,0,0,0,0,0,0,0,0,0,0,0,0,0,0,0,0,0,0,0,0,0,
0,0,0,0,0,0,0,0,0,0,0,0,0,0,0,0,0,0,0,0,0,0,0,0,0,0,0,
0,0,0,0,0,0,0,0,0,0,0,0,0,0,0,0,0,0,0,0,0,0,0,0,0,0,0,
0,0,0,0,0,0,0,0,0,0,0,0,0,0,0,0,0,0,0,0,0,0,0,0,0,0,0,
0,0,0,0,0,0,0,0,0,0,0,0,0,0,0,0,0,0,0,0,0,0,0,0,0,0,0,
0,0,0,0,0,0,0,0,0,0,0,0,0,0,0,0,0,0,0,0,0,0,0,0,0,0,0,
0,0,0,0,0,0,0,0,0,0,0,0,0,0,0,0,0,0,0,0,0,0,0,0,0,0,0,
0,0,0,0,0,0,0,0,0,0,0,0,0,0,0,0,0,0,0,0,0,0,0,0,0,0,0,
0,0,0,0,0,0,0,0,0,0,0,0,0,0,0,0,0,0,0,0,0,0,0,0,0,0,0,
0,0,0,0,0,0,0,0,0,0,0,0,0,0,0,0,0,0,0,0,0,0,0,0,0,0,0,
0,0,0,0,0,0,0,0,0,0,0,0,0,0,0,0,0,0,0,0,0,0,0,0,0,0,0,
0,0,0,0,0,0,0,0,0,0,0,0,0,0,0,0,0,0,0,0,0,0,0,0,0,0,0,
0,0,0,0,0,0,0,0,0,0,0,0,0,0,0,0,0,0,0,0,0,0,0,0,0,0,0,
0,0,0,0,0,0,0,0,0,0,0,0,0,0,0,0,0,0,0,0,0,0,0,0,0,0,0,
0,0,0,0,0,0,0,0,0,0,0,0,0,0,0,0,0,0,0,0,0,0,0,0,0,0,0,
0,0,0,0,0,0,0,0,0,0,0,0,0,0,0,0,0,0,0,0,0,0,0,0,0,0,0,
0,0,0,0,0,0,0,0,0,0,0,0,0,0,0,0,0,0,0,0,0,0,0,0,0,0,0,
0,0,0,0,0,0,0,0,0,0,0,0,0,0,0,0,0,0,0,0,0,0,0,0,0,0,0,
0,0,0,0,0,0,0,0,0,0,0,0,0,0,0,0,0,0,0,0,0,0,0,0,0,0,0,
0,0,0,0,0,0,0,0,0,0,0,0,0,0,0,0,0,0,0,0,0,0,0,0,0,0,0,
0,0,0,0,0,0,0,0,0,0,0,0,0,0,0,0,0,0,0,0,0,0,0,0,0,0,0,
0,0,0,0,0,0,0,0,0,0,0,0,0,0,0,0,0,0,0,0,0,0,0,0,0,0,0,
0,0,0,0,0,0,0,0,0,0,0,0,0,0,0,0,0,0,0,0,0,0,0,0,0,0,0
</data>
 </layer>
 <layer id="18" name="Special Blocks Registry" width="27" height="24" visible="0">
  <data encoding="csv">
0,0,0,0,0,0,0,0,0,0,0,0,0,0,0,0,0,0,0,0,0,0,0,0,0,0,0,
0,0,0,0,0,0,0,0,0,0,0,0,0,0,0,0,0,0,0,0,0,0,0,0,0,0,0,
0,0,0,0,0,0,0,0,0,0,0,0,0,0,0,0,0,0,0,0,0,0,0,0,0,0,0,
0,0,0,0,0,0,0,0,0,0,0,0,0,0,0,0,0,0,0,0,0,0,0,0,0,0,0,
0,0,0,0,0,0,0,0,0,0,0,0,0,0,0,0,0,0,0,0,0,0,0,0,0,0,0,
0,0,0,0,0,0,0,0,0,0,0,0,0,0,0,0,0,0,0,0,0,0,0,0,0,0,0,
0,0,0,0,0,0,0,0,0,0,0,0,0,0,0,0,0,0,0,0,0,0,0,0,0,0,0,
0,0,0,0,0,0,0,0,0,0,0,0,0,0,0,0,0,0,0,0,0,0,0,0,0,0,0,
0,0,0,0,0,0,0,0,0,0,0,0,0,0,0,0,0,0,0,0,0,0,0,0,0,0,0,
0,0,0,0,0,0,0,0,0,0,0,0,0,0,0,0,0,0,0,0,0,0,0,0,0,0,0,
0,0,0,0,0,0,0,0,0,0,0,0,0,0,0,0,0,0,0,0,0,0,0,0,0,0,0,
0,0,0,0,0,0,0,0,0,0,0,0,0,0,0,0,0,0,0,0,0,0,0,0,0,0,0,
0,0,0,0,0,0,0,0,0,0,0,0,0,0,0,0,0,0,0,0,0,0,0,0,0,0,0,
0,0,0,0,0,0,0,0,0,0,0,0,0,0,0,0,0,0,0,0,0,0,0,0,0,0,0,
0,0,0,0,0,0,0,0,0,0,0,0,0,0,0,0,0,0,0,0,0,0,0,0,0,0,0,
0,0,0,0,0,0,0,0,0,0,0,0,0,0,0,0,0,0,0,0,0,0,0,0,0,0,0,
0,0,0,0,0,0,0,0,0,0,0,0,0,0,0,0,0,0,0,0,0,0,0,0,0,0,0,
0,0,0,0,0,0,0,0,0,0,0,0,0,0,0,0,0,0,0,0,0,0,0,0,0,0,0,
0,0,0,0,0,0,0,0,0,0,0,0,0,0,0,0,0,0,0,0,0,0,0,0,0,0,0,
0,0,0,0,0,0,0,0,0,0,0,0,0,0,0,0,0,0,0,0,0,0,0,0,0,0,0,
0,0,0,0,0,0,0,0,0,0,0,0,0,0,0,0,0,0,0,0,0,0,0,0,0,0,0,
0,0,0,0,0,0,0,0,0,0,0,0,0,0,0,0,0,0,0,0,0,0,0,0,0,0,0,
0,0,0,0,0,0,0,0,0,0,0,0,0,0,0,0,0,0,0,0,0,0,0,0,0,0,0,
0,0,0,0,0,0,0,0,0,0,0,0,0,0,0,0,0,0,0,0,0,0,0,0,0,0,0
</data>
 </layer>
</map>
