<?xml version="1.0" encoding="UTF-8"?>
<map version="1.10" tiledversion="1.12.2" orientation="orthogonal" renderorder="right-down" width="27" height="24" tilewidth="32" tileheight="32" infinite="0" nextlayerid="21" nextobjectid="1">
 <tileset firstgid="1" name="CuteRPG_Field_B" tilewidth="32" tileheight="32" tilecount="0" columns="16">
  <image source="map_assets/cute_rpg_word_VXAce/tilesets/CuteRPG_Field_B.png" trans="ff00ff" width="512" height="512"/>
 </tileset>
 <tileset firstgid="163" name="CuteRPG_Field_C" tilewidth="32" tileheight="32" tilecount="0" columns="16">
  <image source="map_assets/cute_rpg_word_VXAce/tilesets/CuteRPG_Field_C.png" trans="ff00ff" width="512" height="512"/>
 </tileset>
 <tileset firstgid="397" name="CuteRPG_Harbor_C" tilewidth="32" tileheight="32" tilecount="0" columns="16">
  <image source="map_assets/cute_rpg_word_VXAce/tilesets/CuteRPG_Harbor_C.png" trans="ff00ff" width="512" height="512"/>
 </tileset>
 <tileset firstgid="397" name="Room_Builder_32x32" tilewidth="32" tileheight="32" tilecount="0" columns="76">
  <image source="map_assets/v1/Room_Builder_32x32.png" trans="ff00ff" width="2432" height="3488"/>
 </tileset>
 <tileset firstgid="6527" name="CuteRPG_Village_B" tilewidth="32" tileheight="32" tilecount="0" columns="16">
  <image source="map_assets/cute_rpg_word_VXAce/tilesets/CuteRPG_Village_B.png" trans="ff00ff" width="512" height="512"/>
 </tileset>
 <tileset firstgid="6769" name="CuteRPG_Forest_B" tilewidth="32" tileheight="32" tilecount="0" columns="16">
  <image source="map_assets/cute_rpg_word_VXAce/tilesets/CuteRPG_Forest_B.png" trans="ff00ff" width="512" height="512"/>
 </tileset>
 <tileset firstgid="6769" name="CuteRPG_Desert_C" tilewidth="32" tileheight="32" tilecount="0" columns="16">
  <image source="map_assets/cute_rpg_word_VXAce/tilesets/CuteRPG_Desert_C.png" trans="ff00ff" width="512" height="512"/>
 </tileset>
 <tileset firstgid="6820" name="CuteRPG_Mountains_B" tilewidth="32" tileheight="32" tilecount="0" columns="16">
  <image source="map_assets/cute_rpg_word_VXAce/tilesets/CuteRPG_Mountains_B.png" trans="ff00ff" width="512" height="512"/>
 </tileset>
 <tileset firstgid="6820" name="CuteRPG_Desert_B" tilewidth="32" tileheight="32" tilecount="0" columns="16">
  <image source="map_assets/cute_rpg_word_VXAce/tilesets/CuteRPG_Desert_B.png" trans="ff00ff" width="512" height="512"/>
 </tileset>
 <tileset firstgid="6820" name="CuteRPG_Forest_C" tilewidth="32" tileheight="32" tilecount="0" columns="16">
  <image source="map_assets/cute_rpg_word_VXAce/tilesets/CuteRPG_Forest_C.png" trans="ff00ff" width="512" height="512"/>
 </tileset>
 <tileset firstgid="6980" name="interiors_pt1" tilewidth="32" tileheight="32" tilecount="0" columns="16">
  <image source="map_assets/v1/interiors_pt1.png" trans="ff00ff" width="512" height="10016"/>
 </tileset>
 <tileset firstgid="11919" name="interiors_pt2" tilewidth="32" tileheight="32" tilecount="0" columns="16">
  <image source="map_assets/v1/interiors_pt2.png" trans="ff00ff" width="512" height="10016"/>
 </tileset>
 <tileset firstgid="15500" name="interiors_pt3" tilewidth="32" tileheight="32" tilecount="0" columns="16">
  <image source="map_assets/v1/interiors_pt3.png" trans="ff00ff" width="512" height="10032"/>
 </tileset>
 <tileset firstgid="15500" name="interiors_pt4" tilewidth="32" tileheight="32" tilecount="0" columns="16">
  <image source="map_assets/v1/interiors_pt4.png" trans="ff00ff" width="512" height="4000"/>
 </tileset>
 <tileset firstgid="15500" name="interiors_pt5" tilewidth="32" tileheight="32" tilecount="0" columns="16">
  <image source="map_assets/v1/interiors_pt5.png" trans="ff00ff" width="512" height="9024"/>
 </tileset>
 <tileset firstgid="15500" name="blocks" tilewidth="32" tileheight="32" tilecount="0" columns="10">
  <image source="map_assets/blocks/blocks_1.png" trans="ff00ff" width="320" height="256"/>
 </tileset>
 <tileset firstgid="15577" name="blocks_2" tilewidth="32" tileheight="32" tilecount="0" columns="10">
  <image source="map_assets/blocks/blocks_2.png" trans="ff00ff" width="320" height="256"/>
 </tileset>
 <tileset firstgid="15653" name="blocks_3" tilewidth="32" tileheight="32" tilecount="0" columns="10">
  <image source="map_assets/blocks/blocks_3.png" trans="ff00ff" width="320" height="128"/>
 </tileset>
 <layer id="1" name="Bottom Ground" width="27" height="24">
  <data encoding="csv">
2,2,2,2,2,2,2,2,2,2,2,2,2,2,2,2,2,2,2,2,2,2,2,2,2,2,2,
2,2,2,2,2,2,2,2,2,2,2,2,2,2,2,2,2,2,2,2,2,2,2,2,2,2,2,
2,2,2,2,2,2,2,2,2,2,2,2,2,2,2,2,2,2,2,2,2,2,2,2,2,2,2,
2,2,2,2,2,2,2,2,2,2,2,2,2,2,2,2,2,2,2,2,2,2,2,2,2,2,2,
2,2,2,2,2,2,2,2,2,2,2,2,2,2,2,2,2,2,2,2,2,2,2,2,2,2,2,
2,2,2,2,2,2,2,2,2,2,2,2,2,2,2,2,2,2,2,2,2,2,2,2,2,2,2,
2,2,2,2,2,2,2,2,2,2,2,2,2,2,2,2,2,2,2,2,2,2,2,2,2,2,2,
2,2,2,2,2,2,2,2,2,2,2,2,2,2,2,2,2,2,2,2,2,2,2,2,2,2,2,
2,2,2,2,2,2,2,2,2,2,2,2,2,2,2,2,2,2,2,2,2,2,2,2,2,2,2,
2,2,2,2,2,2,2,2,2,2,2,2,2,2,2,2,2,2,2,2,2,2,2,2,2,2,2,
2,2,2,2,2,2,2,2,2,2,2,2,2,2,2,2,2,2,2,2,2,2,2,2,2,2,2,
2,2,2,2,2,2,2,2,2,2,2,2,2,2,2,2,2,2,2,2,2,2,2,2,2,2,2,
2,2,2,2,2,2,2,2,2,2,2,2,2,2,2,2,2,2,2,2,2,2,2,2,2,2,2,
2,2,2,2,2,2,2,2,2,2,2,2,2,2,2,2,2,2,2,2,2,2,2,2,2,2,2,
2,2,2,2,2,2,2,2,2,2,2,2,2,2,2,2,2,2,2,2,2,2,2,2,2,2,2,
2,2,2,2,2,2,2,2,2,2,2,2,2,2,2,2,2,2,2,2,2,2,2,2,2,2,2,
2,2,2,2,2,2,2,2,2,2,2,2,2,2,2,2,2,2,2,2,2,2,2,2,2,2,2,
2,2,2,2,2,2,2,2,2,2,2,2,2,2,2,2,2,2,2,2,2,2,2,2,2,2,2,
2,2,2,2,2,2,2,2,2,2,2,2,2,2,2,2,2,2,2,2,2,2,2,2,2,2,2,
2,2,2,2,2,2,2,2,2,2,2,2,2,2,2,2,2,2,2,2,2,2,2,2,2,2,2,
2,2,2,2,2,2,2,2,2,2,2,2,2,2,2,2,2,2,2,2,2,2,2,2,2,2,2,
2,2,2,2,2,2,2,2,2,2,2,2,2,2,2,2,2,2,2,2,2,2,2,2,2,2,2,
2,2,2,2,2,2,2,2,2,2,2,2,2,2,2,2,2,2,2,2,2,2,2,2,2,2,2,
2,2,2,2,2,2,2,2,2,2,2,2,2,2,2,2,2,2,2,2,2,2,2,2,2,2,2
</data>
 </layer>
 <layer id="4" name="Exterior Ground" width="27" height="24">
  <data encoding="csv">
0,0,0,0,0,0,0,0,0,0,0,0,0,0,0,0,0,0,0,0,0,0,0,0,0,0,0,
0,0,0,0,0,0,0,0,0,0,0,0,0,0,0,0,0,0,0,0,0,0,0,0,0,0,0,
0,0,0,0,0,0,0,0,0,0,0,0,0,0,0,0,0,0,0,0,0,0,0,0,0,0,0,
0,0,0,0,0,0,0,0,0,0,0,0,0,0,0,0,0,0,0,0,0,0,0,0,0,0,0,
0,0,0,0,0,0,0,0,0,0,0,0,0,0,0,0,0,0,0,0,0,0,0,0,0,0,0,
0,0,0,0,0,0,0,0,0,0,0,0,0,0,0,0,0,0,0,0,0,0,0,0,0,0,0,
0,0,0,0,0,0,0,0,0,0,0,0,0,0,0,0,0,0,0,0,0,0,0,0,0,0,0,
0,0,0,0,0,0,0,0,0,0,0,0,0,0,0,0,0,0,0,0,0,0,0,0,0,0,0,
0,0,0,0,0,0,0,0,0,0,0,0,0,0,0,0,0,0,0,0,0,0,0,0,0,0,0,
0,0,0,0,0,0,0,0,0,0,0,0,0,0,0,0,0,0,0,0,0,0,0,0,0,0,0,
0,0,0,0,0,0,0,0,0,0,0,0,0,0,0,0,0,0,0,0,0,0,0,0,0,0,0,
0,0,0,0,0,0,0,0,0,0,0,0,0,0,0,0,0,0,0,0,0,0,0,0,0,0,0,
0,0,0,0,0,0,0,0,0,0,0,0,0,0,0,0,0,0,0,0,0,0,0,0,0,0,0,
0,0,0,0,0,0,0,0,0,0,0,0,0,0,0,0,0,0,0,0,0,0,0,0,0,0,0,
0,0,0,0,0,0,0,0,0,0,0,0,0,0,0,0,0,0,0,0,0,0,0,0,0,0,0,
0,0,0,0,0,0,0,0,0,0,0,0,0,0,0,0,0,0,0,0,0,0,0,0,0,0,0,
69,0,0,0,0,6735,6736,6737,0,0,0,0,0,0,0,0,0,0,0,0,0,0,0,0,0,132,162,
99,6735,6736,6736,6736,6722,6542,6753,0,0,0,0,0,0,0,0,0,0,0,0,0,0,0,0,0,162,162,
99,6751,6553,6554,6539,6554,6539,6753,0,0,0,0,0,0,0,0,0,0,0,0,0,0,0,0,0,162,162,
99,6751,6554,6538,6556,6540,6554,6753,0,0,0,0,0,0,0,0,0,0,0,0,0,0,0,0,0,161,162,
99,6767,6738,6554,6556,6739,6768,0,0,0,0,0,0,0,0,0,0,0,0,0,0,0,0,0,0,161,162,
85,0,6751,6540,6556,6753,0,0,0,0,0,0,0,0,0,0,0,0,0,0,0,0,0,0,132,162,162,
0,0,6751,6554,6554,6753,0,0,0,0,0,0,0,0,132,162,162,162,162,162,162,162,162,162,162,162,162,
0,0,6751,6556,6540,6753,0,0,0,0,0,0,0,0,161,162,162,162,162,162,162,162,162,162,162,162,162
</data>
 </layer>
 <layer id="6" name="Exterior Decoration L1" width="27" height="24">
  <data encoding="csv">
0,0,0,0,4,18,18,5,0,0,0,0,0,0,0,0,0,0,0,0,0,0,0,0,0,0,0,
0,0,0,0,33,34,0,0,5,0,0,0,0,0,0,0,0,0,0,0,0,0,0,0,0,0,0,
0,0,0,4,36,0,0,0,37,18,18,18,5,0,0,0,0,0,0,0,0,0,0,0,0,0,0,
0,0,6788,33,0,0,0,0,0,0,0,0,0,0,0,0,0,0,0,0,0,0,0,0,0,0,0,
0,0,0,33,0,0,0,0,0,0,0,0,0,0,0,0,0,0,0,0,0,0,0,0,0,0,0,
0,0,0,33,0,0,0,0,0,0,0,0,0,0,0,0,0,0,0,0,0,0,0,0,0,0,0,
0,0,50,33,0,0,0,0,0,0,0,0,0,0,0,0,0,0,0,0,0,0,0,0,0,0,0,
0,0,0,20,0,0,0,0,0,0,0,0,0,0,0,0,0,0,0,0,0,0,0,0,0,0,0,
0,0,6788,0,0,0,0,0,0,0,0,0,0,0,0,0,0,0,0,0,0,0,0,0,0,0,0,
0,0,0,0,0,0,0,0,0,0,0,0,0,0,0,0,0,0,0,0,0,0,0,0,0,0,0,
0,0,0,0,0,0,0,0,0,0,0,0,0,0,0,0,0,0,0,0,0,0,0,0,0,0,0,
8,0,0,0,0,0,0,0,0,0,0,0,0,0,0,0,0,0,0,0,0,0,0,0,0,0,0,
0,0,0,0,0,0,0,0,0,0,0,0,0,0,0,0,0,0,0,0,0,0,0,0,0,0,0,
7,0,0,0,0,0,0,0,0,0,0,0,0,0,0,0,0,0,0,0,0,0,0,0,0,0,0,
0,0,0,0,0,0,0,0,0,0,0,0,0,0,0,0,0,0,0,0,0,0,0,0,0,0,0,
0,0,0,0,0,0,0,0,0,0,0,0,0,0,0,0,0,0,0,0,0,0,0,0,0,0,0,
0,0,0,0,0,0,0,0,0,0,0,0,0,0,0,0,0,0,0,0,0,0,0,0,0,0,0,
0,0,0,0,0,0,0,0,0,0,0,0,0,0,0,0,0,0,0,0,0,0,0,0,0,0,92,
0,0,0,0,0,0,0,0,0,0,0,0,0,0,0,0,0,0,0,0,0,0,0,0,0,0,56,
0,0,0,0,0,0,0,0,0,0,0,0,0,0,0,0,0,0,0,0,0,0,0,0,0,0,107,
0,0,0,0,0,0,0,0,0,0,0,0,0,0,0,0,0,0,0,0,0,0,0,0,0,0,57,
0,0,0,0,0,0,0,0,0,0,0,0,0,0,0,0,0,0,0,0,0,0,0,0,0,0,88,
0,0,0,0,0,0,0,0,0,0,0,0,0,0,0,0,0,0,0,0,0,0,0,0,0,0,0,
0,0,0,0,0,0,0,0,0,13,0,0,0,0,0,0,72,92,112,59,108,79,58,64,96,109,0
</data>
 </layer>
 <layer id="9" name="Exterior Decoration L2" width="27" height="24">
  <data encoding="csv">
6802,6802,6804,6819,0,0,0,0,0,0,0,0,0,6888,6889,0,6888,6889,0,0,6960,6961,6962,6963,6960,6961,6962,
6802,6802,6803,0,0,0,0,0,0,0,0,0,0,6904,6905,0,6904,6905,0,0,6976,6977,6978,6979,6976,6977,6978,
6802,6802,6803,0,0,0,0,0,0,0,0,0,0,0,0,0,0,0,0,0,0,0,0,6888,6889,0,0,
6802,6802,6803,0,0,0,0,0,0,0,0,0,0,0,0,0,0,0,0,0,0,0,0,6904,6905,6888,6889,
6802,6802,6803,0,0,0,0,0,0,0,0,0,0,0,0,0,0,0,0,0,0,0,0,0,0,6904,6905,
6802,6802,6803,0,0,0,0,0,0,0,0,0,0,0,0,0,0,0,0,0,0,0,0,0,0,6827,6828,
6802,6802,6803,0,0,0,0,0,0,0,0,0,0,0,0,0,0,0,0,0,0,0,0,0,6827,6860,6844,
6802,6802,6803,0,0,0,0,0,0,0,0,0,0,0,0,0,0,0,0,0,0,0,0,0,6858,6844,6860,
6802,6802,6803,0,0,0,0,0,0,0,0,0,0,0,0,0,0,0,0,0,0,0,0,0,6827,6860,6844,
6818,6818,6819,0,0,0,0,0,0,0,0,0,0,0,0,0,0,0,0,0,0,0,0,0,6858,6844,6860,
0,0,0,0,0,0,0,0,0,0,0,0,0,0,0,0,0,0,0,0,0,0,0,0,0,6858,6859,
0,0,0,0,0,0,0,0,0,0,0,0,0,0,0,0,0,0,0,0,0,0,0,0,0,0,6875,
0,0,0,0,0,0,0,0,0,0,0,0,0,0,0,0,0,0,0,0,0,0,0,0,6888,6889,0,
0,0,0,0,0,0,0,0,0,0,0,0,0,0,0,0,0,0,0,0,0,0,0,0,6904,6905,6888,
0,0,11,0,0,0,0,0,0,0,0,0,0,0,0,0,0,0,0,0,0,0,0,0,0,0,6904,
0,0,0,0,0,0,0,0,0,0,0,0,0,0,0,0,0,0,0,0,0,0,0,0,0,0,0,
0,0,0,0,0,0,0,0,0,0,0,0,0,0,0,0,0,0,0,0,0,0,0,0,0,0,0,
0,0,0,0,0,0,0,0,0,0,0,0,0,0,0,0,0,0,0,0,0,0,0,0,0,0,0,
0,0,0,0,0,0,0,0,0,0,0,0,0,0,0,0,0,0,0,0,0,0,0,0,0,0,0,
0,0,0,0,0,0,0,0,0,0,0,0,0,0,0,0,0,0,0,0,0,0,0,0,0,0,0,
0,0,0,0,0,0,0,0,0,0,0,0,0,0,0,0,0,0,0,0,0,0,0,0,0,0,0,
0,0,0,0,0,0,0,0,0,70,0,0,0,0,0,0,0,0,0,0,0,0,0,0,0,0,0,
0,16,0,0,0,0,0,0,0,0,0,0,0,0,0,0,0,0,0,0,0,0,0,0,0,0,0,
0,0,0,0,0,0,0,0,0,0,0,0,6619,0,0,0,0,0,0,0,0,0,0,0,0,0,0
</data>
 </layer>
 <layer id="5" name="Interior Ground" width="27" height="24">
  <data encoding="csv">
0,0,0,0,0,0,0,0,0,0,0,0,0,0,0,0,0,0,0,0,0,0,0,0,0,0,0,
0,0,0,0,0,0,0,0,0,0,0,0,0,0,0,0,0,0,0,0,0,0,0,0,0,0,0,
0,0,0,0,0,0,0,0,0,0,0,0,0,0,0,0,0,0,0,0,0,0,0,0,0,0,0,
0,0,0,0,0,0,0,0,0,0,0,0,0,0,0,0,0,0,0,0,0,0,0,0,0,0,0,
0,0,0,0,0,0,0,0,0,0,0,0,0,0,0,0,0,0,0,0,0,0,0,0,0,0,0,
0,0,0,0,0,396,396,396,396,396,396,396,396,396,396,396,396,396,396,396,396,396,0,0,0,0,0,
0,0,0,0,0,396,396,396,396,396,396,396,396,396,396,396,396,396,396,396,396,396,0,0,0,0,0,
0,0,0,0,0,396,396,396,396,396,396,396,396,396,396,396,396,396,396,396,396,396,0,0,0,0,0,
0,0,0,0,0,396,396,396,396,396,396,396,396,396,396,396,396,396,396,396,396,396,0,0,0,0,0,
0,0,0,0,0,396,396,396,396,396,396,396,396,396,396,396,396,396,396,396,396,396,0,0,0,0,0,
0,0,0,0,0,396,396,396,396,396,396,396,396,396,396,396,396,396,396,396,396,396,0,0,0,0,0,
0,0,0,0,0,396,396,396,396,396,396,396,396,396,396,396,396,396,396,396,396,396,0,0,0,0,0,
0,0,0,0,0,396,396,396,396,396,396,396,396,396,396,396,396,396,396,396,396,396,0,0,0,0,0,
0,0,0,0,0,0,0,0,0,0,396,396,396,396,396,396,396,396,0,0,0,0,0,0,0,0,0,
0,0,0,0,0,0,0,0,0,0,396,396,396,396,396,396,396,396,0,0,0,0,0,0,0,0,0,
0,0,0,0,0,396,396,396,396,396,396,396,396,396,396,396,396,396,396,396,396,396,0,0,0,0,0,
0,0,0,0,0,0,0,0,396,396,396,396,396,396,396,396,396,396,396,396,396,396,0,0,0,0,0,
0,0,0,0,0,0,0,0,396,396,396,396,396,396,396,396,396,396,396,396,396,396,0,0,0,0,0,
0,0,0,0,0,0,0,0,396,396,396,396,396,396,396,396,396,396,396,396,396,396,0,0,0,0,0,
0,0,0,0,0,0,0,0,396,396,396,396,396,396,396,396,396,396,396,396,396,396,0,0,0,0,0,
0,0,0,0,0,0,0,0,0,0,0,0,0,0,0,0,0,0,0,0,0,0,0,0,0,0,0,
0,0,0,0,0,0,0,0,0,0,0,0,0,0,0,0,0,0,0,0,0,0,0,0,0,0,0,
0,0,0,0,0,0,0,0,0,0,0,0,0,0,0,0,0,0,0,0,0,0,0,0,0,0,0,
0,0,0,0,0,0,0,0,0,0,0,0,0,0,0,0,0,0,0,0,0,0,0,0,0,0,0
</data>
 </layer>
 <layer id="3" name="Wall" width="27" height="24">
  <data encoding="csv">
0,0,0,0,0,0,0,0,0,0,0,0,0,0,0,0,0,0,0,0,0,0,0,0,0,0,0,
0,0,0,0,0,0,0,0,0,0,0,0,0,0,0,0,0,0,0,0,0,0,0,0,0,0,0,
0,0,0,0,0,0,0,0,0,0,0,0,0,0,0,0,0,0,0,0,0,0,0,0,0,0,0,
0,0,0,0,5087,5240,5241,5241,5241,5241,5241,5241,5241,5090,5087,5241,5240,5240,5240,5240,5240,5241,5090,0,0,0,0,
0,0,0,0,5163,5316,5317,5317,5317,5317,5317,5317,5317,5166,5163,5317,5316,5316,5316,5316,5316,5317,5166,0,0,0,0,
0,0,0,0,5239,0,0,0,0,0,0,0,0,5242,5239,0,0,0,0,0,0,0,5242,0,0,0,0,
0,0,0,0,5239,0,0,0,0,0,0,0,0,5242,5239,0,0,0,0,0,0,0,5242,0,0,0,0,
0,0,0,0,5239,0,0,0,0,0,0,0,0,5242,5239,0,0,0,0,0,0,0,5242,0,0,0,0,
0,0,0,0,5239,0,0,0,0,0,0,0,0,5242,5239,0,0,0,0,0,0,0,5242,0,0,0,0,
0,0,0,0,5239,0,0,0,0,0,0,0,0,5242,5239,0,0,0,0,0,0,0,5242,0,0,0,0,
0,0,0,0,5239,0,0,0,0,0,0,0,0,5242,5239,0,0,0,0,0,0,0,5242,0,0,0,0,
0,0,0,0,5239,0,0,0,0,0,0,0,0,5242,5239,0,0,0,0,0,0,0,5242,0,0,0,0,
0,0,0,0,5239,0,0,0,0,0,0,0,0,5242,5239,0,0,0,0,0,0,0,5242,0,0,0,0,
0,0,0,0,5162,5240,5241,5240,5241,5313,0,0,5085,5241,5241,5313,0,0,5241,5241,5241,5241,5090,0,0,0,0,
0,0,0,0,5238,5316,5317,5316,5317,5389,0,0,5161,5317,5317,5389,0,0,5317,5317,5317,5317,5166,0,0,0,0,
0,0,0,0,5239,0,0,0,0,0,0,0,0,0,0,0,0,0,0,0,0,0,5242,0,0,0,0,
0,0,0,0,6523,6526,0,0,0,0,0,0,0,0,0,0,0,0,0,0,0,0,5242,0,0,0,0,
0,0,0,0,0,0,0,0,0,0,0,0,0,0,0,0,0,0,0,0,0,0,5242,0,0,0,0,
0,0,0,0,0,0,0,0,0,0,0,0,0,0,0,0,0,0,0,0,0,0,5242,0,0,0,0,
0,0,0,0,0,0,0,0,0,0,0,0,0,0,0,0,0,0,0,0,0,0,5242,0,0,0,0,
0,0,0,0,0,0,0,0,5467,5468,5468,5468,5468,5468,5468,5468,5468,5468,5468,5469,5468,5469,5470,0,0,0,0,
0,0,0,0,0,0,0,0,0,0,0,0,0,0,0,0,0,0,0,0,0,0,0,0,0,0,0,
0,0,0,0,0,0,0,0,0,0,0,0,0,0,0,0,0,0,0,0,0,0,0,0,0,0,0,
0,0,0,0,0,0,0,0,0,0,0,0,0,0,0,0,0,0,0,0,0,0,0,0,0,0,0
</data>
 </layer>
 <layer id="10" name="Interior Furniture L1" width="27" height="24">
  <data encoding="csv">
0,0,0,0,0,0,0,0,0,0,0,0,0,0,0,0,0,0,0,0,0,0,0,0,0,0,0,
0,0,0,0,0,0,0,0,0,0,0,0,0,0,0,0,0,0,0,0,0,0,0,0,0,0,0,
0,0,0,0,0,0,0,0,0,0,0,0,0,0,0,0,0,0,11867,11868,11869,11870,0,0,0,0,0,
0,0,0,0,0,12319,12320,12319,12320,12339,12340,0,0,0,0,0,0,0,11883,11884,11885,11886,0,0,0,0,0,
0,0,0,0,0,12335,12336,12335,12336,12355,12356,12341,12342,0,0,12901,12902,0,11899,11900,11901,11902,0,0,0,0,0,
0,0,0,0,0,0,0,0,0,0,0,0,0,0,0,12917,12918,0,11915,11916,11917,11918,0,0,0,0,0,
0,0,0,0,0,0,0,0,12273,12274,0,12273,12274,0,0,0,0,0,0,0,0,0,0,0,0,0,0,
0,0,0,0,0,0,12231,0,12289,12290,0,12289,12290,0,0,0,11272,15451,15450,11306,0,0,0,0,0,0,0,
0,0,0,0,0,12308,12247,0,12273,12274,0,12273,12274,0,0,0,11288,15467,15466,11322,0,0,0,0,0,0,0,
0,0,0,0,0,12324,12263,0,12289,12290,0,12289,12290,0,0,0,11272,15483,15482,11306,0,11814,0,0,0,0,0,
0,0,0,0,0,0,0,0,12273,12274,0,12273,12274,0,0,0,11288,15499,15498,11322,0,11830,0,0,0,0,0,
0,0,0,0,0,0,0,0,12289,12290,0,12289,12290,0,0,0,0,0,0,0,0,11846,0,0,0,0,0,
0,0,0,0,0,0,0,0,0,0,0,0,0,0,0,0,0,0,0,0,0,11862,0,0,0,0,0,
0,0,0,0,0,0,0,0,0,0,0,0,0,0,0,0,0,0,0,0,0,0,0,0,0,0,0,
0,0,0,0,0,0,0,0,0,0,0,0,0,0,0,0,0,0,0,0,0,0,0,0,0,0,0,
0,0,0,0,0,0,0,0,0,0,0,0,0,0,0,0,0,0,0,0,0,0,0,0,0,0,0,
0,0,0,0,0,0,0,0,0,0,0,0,0,0,0,0,0,0,0,0,0,0,0,0,0,0,0,
0,0,0,0,0,0,0,0,0,0,0,0,0,0,0,0,0,0,0,0,0,0,0,0,0,0,0,
0,0,0,0,0,0,0,0,0,0,0,0,0,0,0,0,0,0,0,0,0,0,0,0,0,0,0,
0,0,0,0,0,0,0,0,0,0,0,0,0,0,0,0,0,0,0,0,0,0,0,0,0,0,0,
0,0,0,0,0,0,0,0,0,0,0,0,0,0,0,0,0,0,0,0,0,0,0,0,0,0,0,
0,0,0,0,0,0,0,0,0,0,0,0,0,0,0,0,0,0,0,0,0,0,0,0,0,0,0,
0,0,0,0,0,0,0,0,0,0,0,0,0,0,0,0,0,0,0,0,0,0,0,0,0,0,0,
0,0,0,0,0,0,0,0,0,0,0,0,0,0,0,0,0,0,0,0,0,0,0,0,0,0,0
</data>
 </layer>
 <layer id="11" name="Interior Furniture L2 " width="27" height="24">
  <data encoding="csv">
0,0,0,0,0,0,0,0,0,0,0,0,0,0,0,0,0,0,0,0,0,0,0,0,0,0,0,
0,0,0,0,0,0,0,0,0,0,0,0,0,0,0,0,0,0,0,0,0,0,0,0,0,0,0,
0,0,0,0,0,0,0,0,0,0,0,0,0,0,0,0,0,0,0,0,0,0,0,0,0,0,0,
0,0,0,0,0,0,0,0,0,0,0,0,0,0,0,0,0,0,0,0,0,0,0,0,0,0,0,
0,0,0,0,0,0,0,0,0,0,0,0,0,0,0,0,0,0,0,0,0,0,0,0,0,0,0,
0,0,0,0,0,0,0,0,0,0,0,0,0,0,0,0,0,0,0,0,0,0,0,0,0,0,0,
0,0,0,0,0,0,0,0,0,0,0,0,0,0,0,0,0,0,0,0,0,0,0,0,0,0,0,
0,0,0,0,0,0,12232,0,0,0,0,0,0,0,0,0,0,0,0,0,0,0,0,0,0,0,0,
0,0,0,0,0,0,12248,0,0,0,0,0,0,0,0,0,0,0,0,0,0,0,0,0,0,0,0,
0,0,0,0,0,0,0,0,0,0,0,0,0,0,0,0,0,0,0,0,0,0,0,0,0,0,0,
0,0,0,0,0,0,0,0,0,0,0,0,0,0,0,0,0,0,0,0,0,0,0,0,0,0,0,
0,0,0,0,0,0,0,0,0,0,0,0,0,0,0,0,0,0,0,0,0,0,0,0,0,0,0,
0,0,0,0,0,0,0,0,0,0,0,0,0,0,0,0,0,0,0,0,0,0,0,0,0,0,0,
0,0,0,0,0,0,0,0,0,0,0,0,0,0,0,0,0,0,0,0,0,0,0,0,0,0,0,
0,0,0,0,0,0,0,0,0,0,0,0,0,0,0,0,0,0,0,0,0,0,0,0,0,0,0,
0,0,0,0,0,0,0,0,0,0,0,0,0,0,0,0,0,0,0,0,0,0,0,0,0,0,0,
0,0,0,0,0,0,0,0,0,0,0,0,0,0,0,0,0,0,0,0,0,0,0,0,0,0,0,
0,0,0,0,0,0,0,0,0,0,0,0,0,0,0,0,0,0,0,0,0,0,0,0,0,0,0,
0,0,0,0,0,0,0,0,0,0,0,0,0,0,0,0,0,0,0,0,0,0,0,0,0,0,0,
0,0,0,0,0,0,0,0,0,0,0,0,0,0,0,0,0,0,0,0,0,0,0,0,0,0,0,
0,0,0,0,0,0,0,0,0,0,0,0,0,0,0,0,0,0,0,0,0,0,0,0,0,0,0,
0,0,0,0,0,0,0,0,0,0,0,0,0,0,0,0,0,0,0,0,0,0,0,0,0,0,0,
0,0,0,0,0,0,0,0,0,0,0,0,0,0,0,0,0,0,0,0,0,0,0,0,0,0,0,
0,0,0,0,0,0,0,0,0,0,0,0,0,0,0,0,0,0,0,0,0,0,0,0,0,0,0
</data>
 </layer>
 <layer id="19" name="Foreground L1" width="27" height="24">
  <data encoding="csv">
0,0,0,0,0,0,0,0,0,0,0,0,0,0,0,0,0,0,0,0,0,0,0,0,0,0,0,
0,0,0,0,0,0,0,0,0,0,0,0,0,0,0,0,0,0,0,0,0,0,0,0,0,0,0,
0,0,0,0,0,0,0,0,0,0,0,0,0,0,0,0,0,0,0,0,0,0,0,0,0,0,0,
0,0,0,0,5087,5240,5241,5241,5241,5241,5241,5241,5241,5090,5087,5241,5240,5240,5240,5240,5240,5241,5090,0,0,0,0,
0,0,0,0,0,0,0,0,0,0,0,0,0,0,0,0,0,0,0,0,0,0,0,0,0,0,0,
0,0,0,0,0,0,0,0,0,0,0,0,0,0,0,0,0,0,0,0,0,0,0,0,0,0,0,
0,0,0,0,0,0,0,0,0,0,0,0,0,0,0,0,0,0,0,0,0,0,0,0,0,0,0,
0,0,0,0,0,0,12231,0,0,0,0,0,0,0,0,0,0,0,0,0,0,0,0,0,0,0,0,
0,0,0,0,0,0,0,0,0,0,0,0,0,0,0,0,0,0,0,0,0,0,0,0,0,0,0,
0,0,0,0,0,0,0,0,0,0,0,0,0,0,0,0,0,0,0,0,0,11814,0,0,0,0,0,
0,0,0,0,0,0,0,0,0,0,0,0,0,0,0,0,0,0,0,0,0,0,0,0,0,0,0,
0,0,0,0,0,0,0,0,0,0,0,0,0,0,0,0,0,0,0,0,0,0,0,0,0,0,0,
0,0,0,0,0,0,0,0,0,0,0,0,0,0,0,0,0,0,0,0,0,0,0,0,0,0,0,
0,0,0,0,5162,5240,5241,5240,5241,5313,0,0,5085,5241,5241,5313,0,0,5241,5241,5241,5241,5090,0,0,0,0,
0,0,0,0,0,0,0,0,0,0,0,0,0,0,0,0,0,0,0,0,0,0,0,0,0,0,0,
0,0,0,0,0,0,0,0,0,0,0,0,0,0,0,0,0,0,0,0,0,0,0,0,0,0,0,
0,0,0,0,6523,6526,0,0,0,0,0,0,0,0,0,0,0,0,0,0,0,0,0,0,0,0,0,
0,0,0,0,0,0,0,0,0,0,0,0,0,0,0,0,0,0,0,0,0,0,0,0,0,0,0,
0,0,0,0,0,0,0,0,0,0,0,0,0,0,0,0,0,0,0,0,0,0,0,0,0,0,0,
0,0,0,0,0,0,0,0,0,0,0,0,0,0,0,0,0,0,0,0,0,0,0,0,0,0,0,
0,0,0,0,0,0,0,0,5467,5468,5468,5468,5468,5468,5468,5468,5468,5468,5468,5469,5468,5469,5470,0,0,0,0,
0,0,0,0,0,0,0,0,0,0,0,0,0,0,0,0,0,0,0,0,0,0,0,0,0,0,0,
0,0,0,0,0,0,0,0,0,0,0,0,0,0,0,0,0,0,0,0,0,0,0,0,0,0,0,
0,0,0,0,0,0,0,0,0,0,0,0,0,0,0,0,0,0,0,0,0,0,0,0,0,0,0
</data>
 </layer>
 <layer id="20" name="Foreground L2" width="27" height="24">
  <data encoding="csv">
0,0,0,0,0,0,0,0,0,0,0,0,0,0,0,0,0,0,0,0,0,0,0,0,0,0,0,
0,0,0,0,0,0,0,0,0,0,0,0,0,0,0,0,0,0,0,0,0,0,0,0,0,0,0,
0,0,0,0,0,0,0,0,0,0,0,0,0,0,0,0,0,0,11867,11868,11869,11870,0,0,0,0,0,
0,0,0,0,0,12319,12320,12319,12320,12339,12340,0,0,0,0,0,0,0,11883,11884,11885,11886,0,0,0,0,0,
0,0,0,0,0,0,0,0,0,0,0,0,0,0,0,0,0,0,0,0,0,0,0,0,0,0,0,
0,0,0,0,0,0,0,0,0,0,0,0,0,0,0,0,0,0,0,0,0,0,0,0,0,0,0,
0,0,0,0,0,0,0,0,0,0,0,0,0,0,0,0,0,0,0,0,0,0,0,0,0,0,0,
0,0,0,0,0,0,12232,0,0,0,0,0,0,0,0,0,0,0,0,0,0,0,0,0,0,0,0,
0,0,0,0,0,0,12248,0,0,0,0,0,0,0,0,0,0,0,0,0,0,0,0,0,0,0,0,
0,0,0,0,0,0,0,0,0,0,0,0,0,0,0,0,0,0,0,0,0,0,0,0,0,0,0,
0,0,0,0,0,0,0,0,0,0,0,0,0,0,0,0,0,0,0,0,0,0,0,0,0,0,0,
0,0,0,0,0,0,0,0,0,0,0,0,0,0,0,0,0,0,0,0,0,0,0,0,0,0,0,
0,0,0,0,0,0,0,0,0,0,0,0,0,0,0,0,0,0,0,0,0,0,0,0,0,0,0,
0,0,0,0,0,0,0,0,0,0,0,0,0,0,0,0,0,0,0,0,0,0,0,0,0,0,0,
0,0,0,0,0,0,0,0,0,0,0,0,0,0,0,0,0,0,0,0,0,0,0,0,0,0,0,
0,0,0,0,0,0,0,0,0,0,0,0,0,0,0,0,0,0,0,0,0,0,0,0,0,0,0,
0,0,0,0,0,0,0,0,0,0,0,0,0,0,0,0,0,0,0,0,0,0,0,0,0,0,0,
0,0,0,0,0,0,0,0,0,0,0,0,0,0,0,0,0,0,0,0,0,0,0,0,0,0,0,
0,0,0,0,0,0,0,0,0,0,0,0,0,0,0,0,0,0,0,0,0,0,0,0,0,0,0,
0,0,0,0,0,0,0,0,0,0,0,0,0,0,0,0,0,0,0,0,0,0,0,0,0,0,0,
0,0,0,0,0,0,0,0,0,0,0,0,0,0,0,0,0,0,0,0,0,0,0,0,0,0,0,
0,0,0,0,0,0,0,0,0,0,0,0,0,0,0,0,0,0,0,0,0,0,0,0,0,0,0,
0,0,0,0,0,0,0,0,0,0,0,0,0,0,0,0,0,0,0,0,0,0,0,0,0,0,0,
0,0,0,0,0,0,0,0,0,0,0,0,0,0,0,0,0,0,0,0,0,0,0,0,0,0,0
</data>
 </layer>
 <layer id="12" name="Collisions" width="27" height="24" opacity="0.4">
  <data encoding="csv">
0,0,0,0,0,0,0,0,0,0,0,0,0,0,0,0,0,0,0,0,0,0,0,0,0,0,0,
0,0,0,0,0,0,0,0,0,0,0,0,0,0,0,0,0,0,0,0,0,0,0,0,0,0,0,
0,0,0,0,0,0,0,0,0,0,0,0,0,0,0,0,0,0,0,0,0,0,0,0,0,0,0,
0,0,0,0,0,0,0,0,0,0,0,0,0,0,0,0,0,0,0,0,0,0,0,0,0,0,0,
0,0,0,0,0,15500,15500,15500,15500,15500,15500,15500,15500,0,0,15500,15500,15500,15500,15500,15500,15500,0,0,0,0,0,
15500,15500,15500,15500,15500,0,0,0,0,0,0,0,0,15500,15500,0,0,0,0,0,0,0,15500,0,0,0,0,
0,0,0,0,15500,0,0,0,15500,0,0,15500,0,15500,15500,0,0,0,0,0,0,0,15500,0,0,0,0,
0,0,0,0,15500,0,0,0,0,0,0,0,0,15500,15500,0,0,15500,15500,0,0,0,15500,0,0,0,0,
0,0,0,0,15500,0,15500,0,15500,0,0,15500,0,15500,15500,0,0,15500,15500,0,0,0,15500,0,0,0,0,
0,0,0,0,15500,0,15500,0,0,0,0,0,0,15500,15500,0,0,15500,15500,0,0,0,15500,0,0,0,0,
0,0,0,0,15500,0,0,0,15500,0,0,15500,0,15500,15500,0,0,0,0,0,0,15500,15500,0,0,0,0,
0,0,0,0,15500,0,0,0,0,0,0,0,0,15500,15500,0,0,0,0,0,0,15500,15500,0,0,0,0,
0,0,0,0,15500,0,0,0,0,0,0,0,0,15500,15500,0,0,0,0,0,0,15500,15500,0,0,0,0,
0,0,0,0,15500,15500,15500,15500,15500,15500,0,0,15500,15500,15500,15500,0,0,15500,15500,15500,15500,15500,15500,15500,0,0,
0,0,0,0,15500,15500,15500,15500,15500,15500,0,0,15500,15500,15500,15500,0,0,15500,15500,15500,15500,15500,0,0,15500,15500,
0,0,0,0,15500,0,0,0,0,0,0,0,0,0,0,0,0,0,0,0,0,0,15500,0,0,0,0,
0,15500,15500,15500,15500,15500,0,0,0,0,0,0,0,0,0,0,0,0,0,0,0,0,15500,0,0,0,0,
0,0,0,0,0,0,0,0,0,0,0,0,0,0,0,0,0,0,0,0,0,0,15500,0,0,0,15500,
0,0,0,0,0,0,0,0,0,0,0,0,0,0,0,0,0,0,0,0,0,0,15500,0,0,0,15500,
0,0,0,0,0,0,0,0,0,0,0,0,0,0,0,0,0,0,0,0,0,0,15500,0,0,0,15500,
0,0,0,0,0,0,0,0,15500,15500,15500,15500,15500,15500,15500,15500,15500,15500,15500,15500,15500,15500,15500,0,0,0,15500,
0,0,0,0,0,0,15500,15500,0,0,0,0,0,0,0,0,0,0,0,0,0,0,0,0,0,0,15500,
0,0,0,0,0,0,0,0,0,0,0,0,0,0,0,0,0,0,0,0,0,0,0,0,0,0,0,
0,0,0,0,0,0,0,0,0,0,0,0,15500,0,0,0,15500,15500,15500,15500,15500,15500,15500,15500,15500,15500,0
</data>
 </layer>
 <layer id="14" name="Object Interaction Blocks" width="27" height="24">
  <data encoding="csv">
0,0,0,0,0,0,0,0,0,0,0,0,0,0,0,0,0,0,0,0,0,0,0,0,0,0,0,
0,0,0,0,0,0,0,0,0,0,0,0,0,0,0,0,0,0,0,0,0,0,0,0,0,0,0,
0,0,0,0,0,0,0,0,0,0,0,0,0,0,0,0,0,0,0,0,0,0,0,0,0,0,0,
0,0,0,0,0,0,0,0,0,0,0,0,0,0,0,0,0,0,0,0,0,0,0,0,0,0,0,
0,0,0,0,0,0,0,0,0,0,0,0,0,0,0,0,0,0,0,0,0,0,0,0,0,0,0,
0,0,0,0,0,15651,15651,15651,15651,0,0,0,0,0,0,15612,15612,0,15622,15622,15622,15622,0,0,0,0,0,
0,0,0,0,0,0,0,0,0,15642,0,0,15642,0,0,0,0,0,0,0,0,0,0,0,0,0,0,
0,0,0,0,0,0,0,0,0,0,0,0,0,0,0,0,15632,0,0,15632,0,0,0,0,0,0,0,
0,0,0,0,0,15652,0,0,0,15642,0,0,15642,0,0,0,0,0,0,0,0,0,0,0,0,0,0,
0,0,0,0,0,0,0,0,0,0,0,0,0,0,0,0,15632,0,0,15632,0,0,0,0,0,0,0,
0,0,0,0,0,0,0,0,0,15642,0,0,15642,0,0,0,0,0,0,0,15622,0,0,0,0,0,0,
0,0,0,0,0,0,0,0,0,0,0,0,0,0,0,0,0,0,0,0,15622,0,0,0,0,0,0,
0,0,0,0,0,0,0,0,0,0,0,0,0,0,0,0,0,0,0,0,15622,0,0,0,0,0,0,
0,0,0,0,0,0,0,0,0,0,0,0,0,0,0,0,0,0,0,0,0,0,0,0,0,0,0,
0,0,0,0,0,0,0,0,0,0,0,0,0,0,0,0,0,0,0,0,0,0,0,0,0,0,0,
0,0,0,0,0,0,0,0,0,0,0,0,0,0,0,0,0,0,0,0,0,0,0,0,0,0,0,
0,0,0,0,0,0,0,0,0,0,0,0,0,0,0,0,0,0,0,0,0,0,0,0,0,0,15594,
0,0,0,0,0,0,0,0,0,0,0,0,0,0,0,0,0,0,0,0,0,0,0,0,0,15594,0,
0,0,0,0,0,0,0,0,0,0,0,0,0,0,0,0,0,0,0,0,0,0,0,0,0,15594,0,
0,0,0,0,0,0,0,0,0,0,0,0,0,0,0,0,0,0,0,0,0,0,0,0,0,15594,0,
0,0,0,0,0,0,0,0,0,0,0,0,0,0,0,0,0,0,0,0,0,0,0,0,0,15594,0,
0,0,0,0,0,0,0,0,0,0,0,0,0,0,0,0,0,0,0,0,0,0,0,0,0,15594,0,
0,0,0,0,0,0,0,0,0,0,0,0,0,0,0,15594,15594,15594,15594,15594,15594,15594,15594,15594,15594,15594,15594,
0,0,0,0,0,0,0,0,0,0,0,0,0,0,0,15594,0,0,0,0,0,0,0,0,0,0,15594
</data>
 </layer>
 <layer id="13" name="Arena Blocks" width="27" height="24" visible="0">
  <data encoding="csv">
0,0,0,0,0,0,0,0,0,0,0,0,0,0,0,0,0,0,0,0,0,0,0,0,0,0,0,
0,0,0,0,0,0,0,0,0,0,0,0,0,0,0,0,0,0,0,0,0,0,0,0,0,0,0,
0,0,0,0,0,0,0,0,0,0,0,0,0,0,0,0,0,0,0,0,0,0,0,0,0,0,0,
0,0,0,0,0,0,0,0,0,0,0,0,0,0,0,0,0,0,0,0,0,0,0,0,0,0,0,
0,0,0,0,0,15556,15556,15556,15556,15556,15556,15556,15556,0,0,15566,15566,15566,15566,15566,15566,15566,0,0,0,0,0,
0,0,0,0,0,15556,15556,15556,15556,15556,15556,15556,15556,0,0,15566,15566,15566,15566,15566,15566,15566,0,0,0,0,0,
0,0,0,0,0,15556,15556,15556,15556,15556,15556,15556,15556,0,0,15566,15566,15566,15566,15566,15566,15566,0,0,0,0,0,
0,0,0,0,0,15556,15556,15556,15556,15556,15556,15556,15556,0,0,15566,15566,15566,15566,15566,15566,15566,0,0,0,0,0,
0,0,0,0,0,15556,15556,15556,15556,15556,15556,15556,15556,0,0,15566,15566,15566,15566,15566,15566,15566,0,0,0,0,0,
0,0,0,0,0,15556,15556,15556,15556,15556,15556,15556,15556,0,0,15566,15566,15566,15566,15566,15566,15566,0,0,0,0,0,
0,0,0,0,0,15556,15556,15556,15556,15556,15556,15556,15556,0,0,15566,15566,15566,15566,15566,15566,15566,0,0,0,0,0,
0,0,0,0,0,15556,15556,15556,15556,15556,15556,15556,15556,0,0,15566,15566,15566,15566,15566,15566,15566,0,0,0,0,0,
0,0,0,0,0,15556,15556,15556,15556,15556,15556,15556,15556,0,0,15566,15566,15566,15566,15566,15566,15566,0,0,0,0,0,
0,0,0,0,0,0,0,0,0,0,15556,15556,0,0,0,0,15566,15566,0,0,0,0,0,0,0,0,0,
0,0,0,0,0,0,0,0,0,0,15556,15556,0,0,0,0,15566,15566,0,0,0,0,0,0,0,0,0,
0,0,0,0,0,15576,15576,15576,15576,15576,15576,15576,15576,15576,15576,15576,15576,15576,15576,15576,15576,15576,0,0,0,0,0,
0,0,0,0,0,0,0,0,15576,15576,15576,15576,15576,15576,15576,15576,15576,15576,15576,15576,15576,15576,0,0,0,15558,15558,
0,0,0,0,0,0,0,0,15576,15576,15576,15576,15576,15576,15576,15576,15576,15576,15576,15576,15576,15576,0,0,0,15558,15558,
0,0,0,0,0,0,0,0,15576,15576,15576,15576,15576,15576,15576,15576,15576,15576,15576,15576,15576,15576,0,0,0,15558,15558,
0,0,0,0,0,0,0,0,15576,15576,15576,15576,15576,15576,15576,15576,15576,15576,15576,15576,15576,15576,0,0,0,15558,15558,
0,0,0,0,0,0,0,0,0,0,0,0,0,0,0,0,0,0,0,0,0,0,0,0,0,15558,15558,
0,0,0,0,0,0,0,0,0,0,0,0,0,0,0,0,0,0,0,0,0,0,0,0,15558,15558,15558,
0,0,0,0,0,0,0,0,0,0,0,0,0,0,15558,15558,15558,15558,15558,15558,15558,15558,15558,15558,15558,15558,15558,
0,0,0,0,0,0,0,0,0,0,0,0,0,0,15558,15558,15558,15558,15558,15558,15558,15558,15558,15558,15558,15558,15558
</data>
 </layer>
 <layer id="16" name="Sector Blocks" width="27" height="24" visible="0">
  <data encoding="csv">
0,0,0,0,0,0,0,0,0,0,0,0,0,0,0,0,0,0,0,0,0,0,0,0,0,0,0,
0,0,0,0,0,0,0,0,0,0,0,0,0,0,0,0,0,0,0,0,0,0,0,0,0,0,0,
0,0,0,0,0,0,0,0,0,0,0,0,0,0,0,0,0,0,0,0,0,0,0,0,0,0,0,
0,0,0,0,0,0,0,0,0,0,0,0,0,0,0,0,0,0,0,0,0,0,0,0,0,0,0,
0,0,0,0,15521,15521,15521,15521,15521,15521,15521,15521,15521,15521,15521,15521,15521,15521,15521,15521,15521,15521,15521,0,0,0,0,
0,0,0,0,15521,15521,15521,15521,15521,15521,15521,15521,15521,15521,15521,15521,15521,15521,15521,15521,15521,15521,15521,0,0,0,0,
0,0,0,0,15521,15521,15521,15521,15521,15521,15521,15521,15521,15521,15521,15521,15521,15521,15521,15521,15521,15521,15521,0,0,0,0,
0,0,0,0,15521,15521,15521,15521,15521,15521,15521,15521,15521,15521,15521,15521,15521,15521,15521,15521,15521,15521,15521,0,0,0,0,
0,0,0,0,15521,15521,15521,15521,15521,15521,15521,15521,15521,15521,15521,15521,15521,15521,15521,15521,15521,15521,15521,0,0,0,0,
0,0,0,0,15521,15521,15521,15521,15521,15521,15521,15521,15521,15521,15521,15521,15521,15521,15521,15521,15521,15521,15521,0,0,0,0,
0,0,0,0,15521,15521,15521,15521,15521,15521,15521,15521,15521,15521,15521,15521,15521,15521,15521,15521,15521,15521,15521,0,0,0,0,
0,0,0,0,15521,15521,15521,15521,15521,15521,15521,15521,15521,15521,15521,15521,15521,15521,15521,15521,15521,15521,15521,0,0,0,0,
0,0,0,0,15521,15521,15521,15521,15521,15521,15521,15521,15521,15521,15521,15521,15521,15521,15521,15521,15521,15521,15521,0,0,0,0,
0,0,0,0,15521,15521,15521,15521,15521,15521,15521,15521,15521,15521,15521,15521,15521,15521,15521,15521,15521,15521,15521,0,0,0,0,
0,0,0,0,15521,15521,15521,15521,15521,15521,15521,15521,15521,15521,15521,15521,15521,15521,15521,15521,15521,15521,15521,0,0,0,0,
0,0,0,0,15521,15521,15521,15521,15521,15521,15521,15521,15521,15521,15521,15521,15521,15521,15521,15521,15521,15521,15521,0,0,0,0,
0,0,0,0,0,0,0,0,15521,15521,15521,15521,15521,15521,15521,15521,15521,15521,15521,15521,15521,15521,15521,0,0,15552,15552,
0,0,0,0,0,0,0,0,15521,15521,15521,15521,15521,15521,15521,15521,15521,15521,15521,15521,15521,15521,15521,0,0,15552,15552,
0,0,0,0,0,0,0,0,15521,15521,15521,15521,15521,15521,15521,15521,15521,15521,15521,15521,15521,15521,15521,0,0,15552,15552,
0,0,0,0,0,0,0,0,15521,15521,15521,15521,15521,15521,15521,15521,15521,15521,15521,15521,15521,15521,15521,0,0,15552,15552,
0,0,0,0,0,0,0,0,0,0,0,0,0,0,0,0,0,0,0,0,0,0,0,0,0,15552,15552,
0,0,0,0,0,0,0,0,0,0,0,0,0,0,0,0,0,0,0,0,0,0,0,0,15552,15552,15552,
0,0,0,0,0,0,0,0,0,0,0,0,0,0,15552,15552,15552,15552,15552,15552,15552,15552,15552,15552,15552,15552,15552,
0,0,0,0,0,0,0,0,0,0,0,0,0,0,15552,15552,15552,15552,15552,15552,15552,15552,15552,15552,15552,15552,15552
</data>
 </layer>
 <layer id="17" name="World Blocks" width="27" height="24" visible="0">
  <data encoding="csv">
15509,15509,15509,15509,15509,15509,15509,15509,15509,15509,15509,15509,15509,15509,15509,15509,15509,15509,15509,15509,15509,15509,15509,15509,15509,15509,15509,
15509,15509,15509,15509,15509,15509,15509,15509,15509,15509,15509,15509,15509,15509,15509,15509,15509,15509,15509,15509,15509,15509,15509,15509,15509,15509,15509,
15509,15509,15509,15509,15509,15509,15509,15509,15509,15509,15509,15509,15509,15509,15509,15509,15509,15509,15509,15509,15509,15509,15509,15509,15509,15509,15509,
15509,15509,15509,15509,15509,15509,15509,15509,15509,15509,15509,15509,15509,15509,15509,15509,15509,15509,15509,15509,15509,15509,15509,15509,15509,15509,15509,
15509,15509,15509,15509,15509,15509,15509,15509,15509,15509,15509,15509,15509,15509,15509,15509,15509,15509,15509,15509,15509,15509,15509,15509,15509,15509,15509,
15509,15509,15509,15509,15509,15509,15509,15509,15509,15509,15509,15509,15509,15509,15509,15509,15509,15509,15509,15509,15509,15509,15509,15509,15509,15509,15509,
15509,15509,15509,15509,15509,15509,15509,15509,15509,15509,15509,15509,15509,15509,15509,15509,15509,15509,15509,15509,15509,15509,15509,15509,15509,15509,15509,
15509,15509,15509,15509,15509,15509,15509,15509,15509,15509,15509,15509,15509,15509,15509,15509,15509,15509,15509,15509,15509,15509,15509,15509,15509,15509,15509,
15509,15509,15509,15509,15509,15509,15509,15509,15509,15509,15509,15509,15509,15509,15509,15509,15509,15509,15509,15509,15509,15509,15509,15509,15509,15509,15509,
15509,15509,15509,15509,15509,15509,15509,15509,15509,15509,15509,15509,15509,15509,15509,15509,15509,15509,15509,15509,15509,15509,15509,15509,15509,15509,15509,
15509,15509,15509,15509,15509,15509,15509,15509,15509,15509,15509,15509,15509,15509,15509,15509,15509,15509,15509,15509,15509,15509,15509,15509,15509,15509,15509,
15509,15509,15509,15509,15509,15509,15509,15509,15509,15509,15509,15509,15509,15509,15509,15509,15509,15509,15509,15509,15509,15509,15509,15509,15509,15509,15509,
15509,15509,15509,15509,15509,15509,15509,15509,15509,15509,15509,15509,15509,15509,15509,15509,15509,15509,15509,15509,15509,15509,15509,15509,15509,15509,15509,
15509,15509,15509,15509,15509,15509,15509,15509,15509,15509,15509,15509,15509,15509,15509,15509,15509,15509,15509,15509,15509,15509,15509,15509,15509,15509,15509,
15509,15509,15509,15509,15509,15509,15509,15509,15509,15509,15509,15509,15509,15509,15509,15509,15509,15509,15509,15509,15509,15509,15509,15509,15509,15509,15509,
15509,15509,15509,15509,15509,15509,15509,15509,15509,15509,15509,15509,15509,15509,15509,15509,15509,15509,15509,15509,15509,15509,15509,15509,15509,15509,15509,
15509,15509,15509,15509,15509,15509,15509,15509,15509,15509,15509,15509,15509,15509,15509,15509,15509,15509,15509,15509,15509,15509,15509,15509,15509,15509,15509,
15509,15509,15509,15509,15509,15509,15509,15509,15509,15509,15509,15509,15509,15509,15509,15509,15509,15509,15509,15509,15509,15509,15509,15509,15509,15509,15509,
15509,15509,15509,15509,15509,15509,15509,15509,15509,15509,15509,15509,15509,15509,15509,15509,15509,15509,15509,15509,15509,15509,15509,15509,15509,15509,15509,
15509,15509,15509,15509,15509,15509,15509,15509,15509,15509,15509,15509,15509,15509,15509,15509,15509,15509,15509,15509,15509,15509,15509,15509,15509,15509,15509,
15509,15509,15509,15509,15509,15509,15509,15509,15509,15509,15509,15509,15509,15509,15509,15509,15509,15509,15509,15509,15509,15509,15509,15509,15509,15509,15509,
15509,15509,15509,15509,15509,15509,15509,15509,15509,15509,15509,15509,15509,15509,15509,15509,15509,15509,15509,15509,15509,15509,15509,15509,15509,15509,15509,
15509,15509,15509,15509,15509,15509,15509,15509,15509,15509,15509,15509,15509,15509,15509,15509,15509,15509,15509,15509,15509,15509,15509,15509,15509,15509,15509,
15509,15509,15509,15509,15509,15509,15509,15509,15509,15509,15509,15509,15509,15509,15509,15509,15509,15509,15509,15509,15509,15509,15509,15509,15509,15509,15509
</data>
 </layer>
 <layer id="15" name="Spawning Blocks" width="27" height="24" visible="0" opacity="0.68">
  <data encoding="csv">
0,0,0,0,0,0,0,0,0,0,0,0,0,0,0,0,0,0,0,0,0,0,0,0,0,0,0,
0,0,0,0,0,0,0,0,0,0,0,0,0,0,0,0,0,0,0,0,0,0,0,0,0,0,0,
0,0,0,0,0,0,0,0,0,0,0,0,0,0,0,0,0,0,0,0,0,0,0,0,0,0,0,
0,0,0,0,0,0,0,0,0,0,0,0,0,0,0,0,0,0,0,0,0,0,0,0,0,0,0,
0,0,0,0,0,0,0,0,0,0,0,0,0,0,0,0,0,0,0,0,0,0,0,0,0,0,0,
0,0,0,0,0,0,0,0,0,0,0,0,0,0,0,0,0,0,0,0,0,0,0,0,0,0,0,
0,0,0,0,0,0,0,0,0,0,0,0,0,0,0,0,0,0,0,0,0,0,0,0,0,0,0,
0,0,0,0,0,0,0,0,0,0,0,0,0,0,0,0,0,0,0,0,0,0,0,0,0,0,0,
0,0,0,0,0,0,0,0,0,0,0,0,0,0,0,0,0,0,0,0,0,0,0,0,0,0,0,
0,0,0,0,0,0,0,0,0,0,0,0,0,0,0,0,0,0,0,0,0,0,0,0,0,0,0,
0,0,0,0,0,0,0,0,0,0,0,0,0,0,0,0,0,0,0,0,0,0,0,0,0,0,0,
0,0,0,0,0,0,0,0,0,0,0,0,0,0,0,0,0,0,0,0,0,0,0,0,0,0,0,
0,0,0,0,0,0,0,0,0,0,0,0,0,0,0,0,0,0,0,0,0,0,0,0,0,0,0,
0,0,0,0,0,0,0,0,0,0,0,0,0,0,0,0,0,0,0,0,0,0,0,0,0,0,0,
0,0,0,0,0,0,0,0,0,0,0,0,0,0,0,0,0,0,0,0,0,0,0,0,0,0,0,
0,0,0,0,0,0,0,0,0,0,0,0,0,0,0,0,0,0,0,0,0,0,0,0,0,0,0,
0,0,0,0,0,0,0,0,0,0,0,0,0,0,0,0,0,0,0,0,0,0,0,0,0,0,0,
0,0,0,0,0,0,0,0,0,0,0,0,0,0,0,0,0,0,0,0,0,0,0,0,0,0,0,
0,0,0,0,0,0,0,0,0,0,0,0,0,0,0,0,0,0,0,0,0,0,0,0,0,0,0,
0,0,0,0,0,0,0,0,0,0,0,0,0,0,0,0,0,0,0,0,0,0,0,0,0,0,0,
0,0,0,0,0,0,0,0,0,0,0,0,0,0,0,0,0,0,0,0,0,0,0,0,0,0,0,
0,0,0,0,0,0,0,0,0,0,0,0,0,0,0,0,0,0,0,0,0,0,0,0,0,0,0,
0,0,0,0,0,0,0,0,0,0,0,0,0,0,0,0,0,0,0,0,0,0,0,0,0,0,0,
0,0,0,0,0,0,0,0,0,0,0,0,0,0,0,0,0,0,0,0,0,0,0,0,0,0,0
</data>
 </layer>
 <layer id="18" name="Special Blocks Registry" width="27" height="24" visible="0">
  <data encoding="csv">
0,0,0,0,0,0,0,0,0,0,0,0,0,0,0,0,0,0,0,0,0,0,0,0,0,0,0,
0,0,0,0,0,0,0,0,0,0,0,0,0,0,0,0,0,0,0,0,0,0,0,0,0,0,0,
0,0,0,0,0,0,0,0,0,0,0,0,0,0,0,0,0,0,0,0,0,0,0,0,0,0,0,
0,0,0,0,0,0,0,0,0,0,0,0,0,0,0,0,0,0,0,0,0,0,0,0,0,0,0,
0,0,0,0,0,0,0,0,0,0,0,0,0,0,0,0,0,0,0,0,0,0,0,0,0,0,0,
0,0,0,0,0,0,0,0,0,0,0,0,0,0,0,0,0,0,0,0,0,0,0,0,0,0,0,
0,0,0,0,0,0,0,0,0,0,0,0,0,0,0,0,0,0,0,0,0,0,0,0,0,0,0,
0,0,0,0,0,0,0,0,0,0,0,0,0,0,0,0,0,0,0,0,0,0,0,0,0,0,0,
0,0,0,0,0,0,0,0,0,0,0,0,0,0,0,0,0,0,0,0,0,0,0,0,0,0,0,
0,0,0,0,0,0,0,0,0,0,0,0,0,0,0,0,0,0,0,0,0,0,0,0,0,0,0,
0,0,0,0,0,0,0,0,0,0,0,0,0,0,0,0,0,0,0,0,0,0,0,0,0,0,0,
0,0,0,0,0,0,0,0,0,0,0,0,0,0,0,0,0,0,0,0,0,0,0,0,0,0,0,
0,0,0,0,0,0,0,0,0,0,0,0,0,0,0,0,0,0,0,0,0,0,0,0,0,0,0,
0,0,0,0,0,0,0,0,0,0,0,0,0,0,0,0,0,0,0,0,0,0,0,0,0,0,0,
0,0,0,0,0,0,0,0,0,0,0,0,0,0,0,0,0,0,0,0,0,0,0,0,0,0,0,
0,0,0,0,0,0,0,0,0,0,0,0,0,0,0,0,0,0,0,0,0,0,0,0,0,0,0,
0,0,0,0,0,0,0,0,0,0,0,0,0,0,0,0,0,0,0,0,0,0,0,0,0,0,0,
0,0,0,0,0,0,0,0,0,0,0,0,0,0,0,0,0,0,0,0,0,0,0,0,0,0,0,
0,0,0,0,0,0,0,0,0,0,0,0,0,0,0,0,0,0,0,0,0,0,0,0,0,0,0,
0,0,0,0,0,0,0,0,0,0,0,0,0,0,0,0,0,0,0,0,0,0,0,0,0,0,0,
0,0,0,0,0,0,0,0,0,0,0,0,0,0,0,0,0,0,0,0,0,0,0,0,0,0,0,
0,0,0,0,0,0,0,0,0,0,0,0,0,0,0,0,0,0,0,0,0,0,0,0,0,0,0,
0,0,0,0,0,0,0,0,0,0,0,0,0,0,0,0,0,0,0,0,0,0,0,0,0,0,0,
0,0,0,0,0,0,0,0,0,0,0,0,0,0,0,0,0,0,0,0,0,0,0,0,0,0,0
</data>
 </layer>
</map>
